!!!!SEGMENT: pl-wumfc--n2100--007_dobrzynski-ignacy-feliks--monbar-czyli-flibustierowie-partytura-fortepianowa-akt-i-6-duetto.krn
!!!cenid: 18xx:4190
!!!COM: Dobrzyński, Ignacy Feliks
!!!COM-rismID: pe30020642
!!!CDT: 1807/02/15-1867/10/09
!!!CNT: Polish
!!!GTL: Monbar czyli Flibustierowie - partytura fortepianowa
!!!OTL: Akt I - 6. Duetto
!!!PDT: 1863
!!!AGN:
!!!SMS-siglum: PL-Wumfc
!!!SMS-shelfmark: N2100
!!!SMS-shelfwork: 007 G
!!!SMS-variant:
!!!SMS-altvar:
!!!NIFC-rismSourceID: 1001123412
!!!NIFC-rismChildID: 1001123412
!!!NIFC-islandoraID: pl-wumfc:1659
!!!URL-pdf-islandora: https://repozytorium.nifc.pl/islandora/object/pl-wumfc%3A1659/datastream/PDF/view
!!!URL-scan: https://polish.musicsources.pl/pl/lokalizacje/galeria/druki-muzyczne/11863/56 @EN{Scan on Polish Music Sources Website} @PL{Skany w portalu Dziedzictwo Muzyki Polskiej w otwartym dostępie}
!!!ONB-nifc: Skany 0056-0060
!!!AIN: 2 piano 2 vox
!!!key: d
**kern	**dynam	**kern	**fing	**dynam	**kern	**text	**dynam	**kern	**text	**dynam
*part4	*part4	*part3	*part3	*part3	*part2	*part2	*part2	*part1	*part1	*part1
*staff4	*	*staff3	*	*	*staff2	*staff2	*	*staff1	*staff1	*
*I"PIANO.	*	*I"PIANO.	*	*	*I"D.ŻUAN.	*	*	*I"D.MARYA.	*	*
*I'pf	*	*I'pf	*	*	*I'V 2	*	*	*I'V 1	*	*
*ICklav	*	*ICklav	*	*	*ICvox	*	*	*ICvox	*	*
*Ipiano	*	*Ipiano	*	*	*Ivox	*	*	*Ivox	*	*
*>A	*	*>A	*	*	*>A	*	*	*>A	*	*
*>[A,A1,A,A2,B]	*	*>[A,A1,A,A2,B]	*	*	*>[A,A1,A,A2,B]	*	*	*>[A,A1,A,A2,B]	*	*
*clefF4	*	*clefG2	*	*	*clefG2	*	*	*clefG2	*	*
*k[b-]	*	*k[b-]	*	*	*k[b-]	*	*	*k[b-]	*	*
*d:	*	*d:	*	*	*d:	*	*	*d:	*	*
*M4/4	*	*M4/4	*	*	*M4/4	*	*	*M4/4	*	*
*met(c)	*	*met(c)	*	*	*met(c)	*	*	*met(c)	*	*
=1	=1	=1	=1	=1	=1	=1	=1	=1	=1	=1
!	!	!	!	!	!	!	!	!LO:TX:a:B:t=Agitato.	!	!
8DD\L 8D	.	16r	.	fp	(4.ff\	Ma-	.	1r	.	.
.	.	(16f/LL	.	.	.	.	.	.	.	.
8D\J 8F 8A	.	16e/	.	.	.	.	.	.	.	.
.	.	16d/JJ	.	.	.	.	.	.	.	.
*tremolo	*	*	*	*	*	*	*	*	*	*
8D\L 8F 8A	.	8.g#X^>/L	.	.	.	.	.	.	.	.
8D\ 8F 8A	.	.	.	.	8ee\)	.	.	.	.	.
.	.	16a/Jk)	.	.	.	.	.	.	.	.
8D\ 8F 8A	.	16r	.	.	4dd\	-rjo	.	.	.	.
.	.	(16ff\LL	.	.	.	.	.	.	.	.
8D\ 8F 8A	.	16ee\	.	.	.	.	.	.	.	.
.	.	16dd\JJ	.	.	.	.	.	.	.	.
8D\ 8F 8A	.	8.gg#X^<\L	.	.	8r	.	.	.	.	.
8D\J 8F 8A	.	.	.	.	8a/	ach!	.	.	.	.
.	.	16aa\Jk)	.	.	.	.	.	.	.	.
=2	=2	=2	=2	=2	=2	=2	=2	=2	=2	=2
8D\L 8F 8A	.	16r	.	.	4dd\	wresz-	.	1r	.	.
.	.	(16f/LL	.	.	.	.	.	.	.	.
8D\ 8F 8A	.	16e/	.	.	.	.	.	.	.	.
.	.	16d/JJ	.	.	.	.	.	.	.	.
8D\ 8F 8A	.	8.g#X^>/L	.	.	8dd\	-cie	.	.	.	.
8D\J 8F 8A	.	.	.	.	8dd\	spo-	.	.	.	.
.	.	16a/Jk)	.	.	.	.	.	.	.	.
8D\L 8F 8A	.	16r	.	.	4ff\	-ty-	.	.	.	.
.	.	(16ff\LL	.	.	.	.	.	.	.	.
8D\ 8F 8A	.	16ee\	.	.	.	.	.	.	.	.
.	.	16dd\JJ	.	.	.	.	.	.	.	.
8D\ 8F 8A	.	8.gg#X^<\L	.	.	8ee\	-kam	.	.	.	.
8D\J 8F 8A	.	.	.	.	8dd\	cię	.	.	.	.
!	!	!	!	!LO:DY:b=2	!	!	!	!	!	!
.	.	16aa\Jk)	.	fp	.	.	.	.	.	.
=3	=3	=3	=3	=3	=3	=3	=3	=3	=3	=3
8C#X\L 8E 8A	.	16r	.	.	4ee\	dro-	.	4gg\	Strzeź	.
.	.	(16g/LL	.	.	.	.	.	.	.	.
8C#\ 8E 8A	.	16f/	.	.	.	.	.	.	.	.
.	.	16e/JJ	.	.	.	.	.	.	.	.
8C#\ 8E 8A	.	8.g#X^>/L	.	.	4a/	-ga	.	8ee\	się	.
8C#\J 8E 8A	.	.	.	.	.	.	.	8ee\	Żu-	.
.	.	16a/Jk)	.	.	.	.	.	.	.	.
8C#\L 8E 8A	.	16r	.	.	2r	.	.	4ee\	-a-	.
.	.	(16ggn\LL	.	.	.	.	.	.	.	.
8C#\ 8E 8A	.	16ff\	.	.	.	.	.	.	.	.
.	.	16ee\JJ	.	.	.	.	.	.	.	.
8C#\ 8E 8A	.	8.gg#X^<\L	.	.	.	.	.	4cc#X\	-nie	.
8C#\J 8E 8A	.	.	.	.	.	.	.	.	.	.
.	.	16aa\Jk)	.	.	.	.	.	.	.	.
!!LO:LB:g=original	!	!	!	!	!	!	!	!	!
=4	=4	=4	=4	=4	=4	=4	=4	=4	=4	=4
!	!	!	!	!LO:DY:b=2	!	!	!	!	!	!
8C#X\L 8E 8A	.	16r	.	fp	1r	.	.	4.b-\	chcesz-	.
.	.	(16gn/LL	.	.	.	.	.	.	.	.
8C#\ 8E 8A	.	16f/	.	.	.	.	.	.	.	.
.	.	16e/JJ	.	.	.	.	.	.	.	.
8C#\ 8E 8A	.	8.g#X^/L	.	.	.	.	.	.	.	.
8C#\J 8E 8A	.	.	.	.	.	.	.	8b-\	-że	.
.	.	16a/Jk)	.	.	.	.	.	.	.	.
8C#\L 8E 8A	.	16r	.	.	.	.	.	4a/	wła-	.
.	.	(16ggn\LL	.	.	.	.	.	.	.	.
8C#\ 8E 8A	.	16ff\	.	.	.	.	.	.	.	.
.	.	16ee\JJ	.	.	.	.	.	.	.	.
8C#\ 8E 8A	.	8.gg#X^<\L	.	.	.	.	.	4e/	-snej	.
8C#\J 8E 8A	.	.	.	.	.	.	.	.	.	.
.	.	16aa\Jk)	.	.	.	.	.	.	.	.
=5	=5	=5	=5	=5	=5	=5	=5	=5	=5	=5
!	!	!	!	!LO:DY:b=2	!	!	!	!	!	!
8D\L 8F 8A	.	16r	.	fp	1r	.	.	4g/	zgu-	.
.	.	(16f/LL	.	.	.	.	.	.	.	.
8D\ 8F 8A	.	16e/	.	.	.	.	.	.	.	.
.	.	16d/JJ	.	.	.	.	.	.	.	.
8D\ 8F 8A	.	8.g#X^>/L	.	.	.	.	.	8f/	-by	.
8D\J 8F 8A	.	.	.	.	.	.	.	8r	.	.
.	.	16a/Jk)	.	.	.	.	.	.	.	.
8D\L 8F 8A	.	16r	.	.	.	.	.	4dd\	Pil-	.
*	*	*8va	*	*	*	*	*	*	*	*
.	.	(16ff/LL	.	.	.	.	.	.	.	.
8D\ 8F 8A	.	16ee/	.	.	.	.	.	.	.	.
.	.	16dd/JJ	.	.	.	.	.	.	.	.
8D\ 8F 8A	.	8.gg#^>/L	.	.	.	.	.	8dd\	-nie	.
8D\J 8F 8A	.	.	.	.	.	.	.	8dd\	nad	.
.	.	16aa/Jk)	.	.	.	.	.	.	.	.
*	*	*X8va	*	*	*	*	*	*	*	*
=6	=6	=6	=6	=6	=6	=6	=6	=6	=6	=6
!	!	!	!	!LO:DY:b=2	!	!	!	!	!	!
8C\L 8F#X 8A	.	16r	.	fp	1r	.	.	4dd\	na-	.
.	.	(16a/LL	.	.	.	.	.	.	.	.
8C\ 8F# 8A	.	16g/	.	.	.	.	.	.	.	.
.	.	16f#X/JJ	.	.	.	.	.	.	.	.
8C\ 8F# 8A	.	8.cc#X\L	.	.	.	.	.	4f#X/	-mi	.
8C\J 8F# 8A	.	.	.	.	.	.	.	.	.	.
.	.	16dd\Jk)	.	.	.	.	.	.	.	.
8C\L 8F# 8A	.	16r	.	.	.	.	.	8dd\	czu-	.
.	.	(16aa\LL	.	.	.	.	.	.	.	.
8C\ 8F# 8A	.	16gg\	.	.	.	.	.	8dd\	-wa	.
.	.	16ff#X\JJ	.	.	.	.	.	.	.	.
8C\ 8F# 8A	.	8.ccc#X\L	.	.	.	.	.	8dd\	o-	.
8C\J 8F# 8A	.	.	.	.	.	.	.	8f#/	-ko	.
.	.	16ddd\Jk)	.	.	.	.	.	.	.	.
!!LO:LB:g=original	!	!	!	!	!	!	!	!	!
=7	=7	=7	=7	=7	=7	=7	=7	=7	=7	=7
8BBn\L 8D 8G	.	16r	.	.	4r	.	.	4a/	wro-	.
.	.	(16bn\LL	.	.	.	.	.	.	.	.
8BB\ 8D 8G	.	16a\	.	.	.	.	.	.	.	.
.	.	16g\JJ	.	.	.	.	.	.	.	.
8BB\ 8D 8G	.	8.cc#X\L	.	.	8r	.	.	8g/	-ga	.
8BB\J 8D 8G	.	.	.	.	8dd\	o	.	8r	.	.
.	.	16dd\Jk)	.	.	.	.	.	.	.	.
8BB\L 8D 8G	.	16r	.	.	4dd\	chwi-	.	2r	.	.
!	!	!LO:TX:b:t=cres-:ext=cd:problem:text with extention lines	!	!	!	!	!	!	!	!
.	.	(16bbn\LL	.	<	.	.	.	.	.	.
8BB\ 8D 8G	.	16aa\	.	.	.	.	.	.	.	.
.	.	16gg\JJ	.	.	.	.	.	.	.	.
8BB\ 8D 8G	.	8.ccc#X\L	.	.	4dd\	-lę	.	.	.	.
8BB\J 8D 8G	.	.	.	.	.	.	.	.	.	.
.	.	16ddd\Jk)	.	.	.	.	.	.	.	.
=8	=8	=8	=8	=8	=8	=8	=8	=8	=8	=8
8BB-X\L 8D 8G#X	.	16r	.	.	4ff\	tyl-	.	4r	.	.
.	.	(16ff\LL	.	.	.	.	.	.	.	.
8BB-\ 8D 8G#	.	16ee\	.	.	.	.	.	.	.	.
.	.	16dd\JJ	.	.	.	.	.	.	.	.
8BB-\ 8D 8G#	.	8.cc#X\L	.	.	4dd\	-ko	.	8r	.	.
8BB-\J 8D 8G#	.	.	.	.	.	.	.	8dd\	U-	.
.	.	16dd\Jk)	.	.	.	.	.	.	.	.
8BB-\L 8D 8G#	.	16r	.	.	2r	.	.	4ff\	-cie-	.
.	.	(16fff\LL	.	.	.	.	.	.	.	.
8BB-\ 8D 8G#	.	16eee\	.	.	.	.	.	.	.	.
.	.	16ddd\JJ	.	.	.	.	.	.	.	.
8BB-\ 8D 8G#	.	8.ccc#X\L	.	.	.	.	.	8dd\	-kaj	.
8BB-\J 8D 8G#	.	.	.	.	.	.	.	8dd\	mój	.
.	.	16ddd\Jk)	.	[[	.	.	.	.	.	.
=9	=9	=9	=9	=9	=9	=9	=9	=9	=9	=9
!	!	!	!	!	!LO:TX:a:t=(D.ŻUAN bierze za rękę D.MARYĘ.)	!	!	!	!	!
8AA\L 8C#X 8A	.	8aa\L	.	ff	2r	.	.	4aa\	lu-	.
8AA\ 8C# 8A	.	(16eee\L	.	.	.	.	.	.	.	.
.	.	16ddd\JJ)	.	.	.	.	.	.	.	.
8AA\ 8C# 8A	.	(16ddd\LL	.	.	.	.	.	4a/	-by	.
.	.	16ccc#X\)	.	.	.	.	.	.	.	.
8AA\J 8C# 8A	.	(16ccc#\	.	.	.	.	.	.	.	.
.	.	16bb-\JJ)	.	.	.	.	.	.	.	.
8AA/L 8C# 8E	.	(16bb-\LL	.	.	4ee\	Mon-	.	2r	.	.
.	.	16aa\)	.	.	.	.	.	.	.	.
8AA/ 8C# 8E	.	(16aa\	.	.	.	.	.	.	.	.
.	.	16gg#X\JJ)	.	.	.	.	.	.	.	.
8AA/ 8C# 8E	.	(16gg#\LL	.	.	8ee\	-bar	.	.	.	.
.	.	16aa\)	.	.	.	.	.	.	.	.
8AA/J 8C# 8E	.	(16aa\	.	.	8ee\	wa-	.	.	.	.
.	.	16ggn\JJ)	.	.	.	.	.	.	.	.
!!LO:PB:g=original	!	!	!	!	!	!	!	!	!
=10	=10	=10	=10	=10	=10	=10	=10	=10	=10	=10
!	!	!	!	!	!	!	!	!LO:TX:a:t=(Wtej chwili ukazuje się w głębi V.BEST, spostrzega ich, i oddala się z oznakami oburzenia.)	!	!
8AA/L 8D 8F	.	(16gg\LL	.	.	4ff\	-żne-	.	1r	.	.
.	.	16ff\)	.	.	.	.	.	.	.	.
8AA/ 8D 8F	.	(16ff\	.	.	.	.	.	.	.	.
.	.	16ee\JJ)	.	.	.	.	.	.	.	.
8AA/ 8D 8F	.	(16ee\LL	.	.	4dd\	-mi	.	.	.	.
.	.	16dd\)	.	.	.	.	.	.	.	.
8AA/J 8D 8F	.	(16cc#X\	.	.	.	.	.	.	.	.
.	.	16dd\JJ)	.	.	.	.	.	.	.	.
8AA/L 8D 8F	.	(16dd\LL	.	.	8ff\	za-	.	.	.	.
.	.	16ccn\)	.	.	.	.	.	.	.	.
8AA/ 8D 8F	.	(16cc\	.	.	8ff\	-trud-	.	.	.	.
.	.	16b-\JJ)	.	.	.	.	.	.	.	.
8AA/ 8D 8F	.	(16b-/LL	.	.	8ee\	-nio-	.	.	.	.
.	.	16a/)	.	.	.	.	.	.	.	.
8AA/J 8D 8F	.	(16a/	.	.	8dd\	-ny	.	.	.	.
.	.	16g#X/JJ)	.	.	.	.	.	.	.	.
=11	=11	=11	=11	=11	=11	=11	=11	=11	=11	=11
8AA/L 8C#X 8E	.	8a\L	.	.	4ee\	spra-	.	1r	.	.
8AA/ 8C# 8E	.	(16ee\L	.	.	.	.	.	.	.	.
.	.	16dd\JJ)	.	.	.	.	.	.	.	.
8AA/ 8C# 8E	.	(16dd\LL	.	.	8a/	-wy	.	.	.	.
.	.	16cc#X\)	.	.	.	.	.	.	.	.
8AA/J 8C# 8E	.	(16cc#\	.	.	8r	.	.	.	.	.
.	.	16b-\JJ)	.	.	.	.	.	.	.	.
8AA/L 8C# 8E	.	(16b-/LL	.	.	4ee\	Mo-	.	.	.	.
.	.	16a/)	.	.	.	.	.	.	.	.
8AA/ 8C# 8E	.	(16a/	.	.	.	.	.	.	.	.
.	.	16g#X/JJ)	.	.	.	.	.	.	.	.
8AA/ 8C# 8E	.	(16g#/LL	.	.	8ee\	-żem	.	.	.	.
.	.	16a/)	.	.	.	.	.	.	.	.
8AA/J 8C# 8E	.	(16a/	.	.	8ee\	tu	.	.	.	.
.	.	16gn/JJ)	.	.	.	.	.	.	.	.
=12	=12	=12	=12	=12	=12	=12	=12	=12	=12	=12
8AA/L 8D 8F	.	(16g/LL	.	.	4ff\	zo-	.	1r	.	.
.	.	16f/)	.	.	.	.	.	.	.	.
8AA/ 8D 8F	.	(16f/	.	.	.	.	.	.	.	.
.	.	16e/JJ)	.	.	.	.	.	.	.	.
8AA/ 8D 8F	.	(16e/LL	.	.	4dd\	-stać	.	.	.	.
.	.	16d/)	.	.	.	.	.	.	.	.
8AA/J 8D 8F	.	(16c#X/	.	.	.	.	.	.	.	.
.	.	16d/JJ)	.	.	.	.	.	.	.	.
8AA/L 8D 8F	.	(16d/LL	.	.	8dd\	chwi-	.	.	.	.
.	.	16cn/)	.	.	.	.	.	.	.	.
8AA/ 8D 8F	.	(16c/	.	.	8dd\	-lę	.	.	.	.
.	.	16B-/JJ)	.	.	.	.	.	.	.	.
8AA/ 8D 8F	.	(16B-/LL	.	.	8dd\	bez	.	.	.	.
.	.	16A/)	.	.	.	.	.	.	.	.
8AA/J 8D 8F	.	(16A/	.	.	8g#X/	o-	.	.	.	.
.	.	16G#X/JJ)	.	.	.	.	.	.	.	.
!!LO:LB:g=original	!	!	!	!	!	!	!	!	!
=13	=13	=13	=13	=13	=13	=13	=13	=13	=13	=13
!	!	!LO:TX:a:t=Fag.	!	!	!	!	!	!	!	!
4AA/ 4C#X 4E	.	(>2.A/	.	f >	4b-\	-ba-	.	1r	.	.
4r	.	.	.	.	4a/	-wy	.	.	.	.
2r	.	.	.	.	2r	.	.	.	.	.
.	.	4B-/	.	]	.	.	.	.	.	.
=14	=14	=14	=14	=14	=14	=14	=14	=14	=14	=14
4r	.	4Bn/	.	p	1r	.	.	1r	.	.
4F\	.	4A/ 4c	.	.	.	.	.	.	.	.
4BB-/	.	[4B-X/ 4d	.	.	.	.	.	.	.	.
4C\ 4G	.	4B-/] 4e	.	.	.	.	.	.	.	.
=15	=15	=15	=15	=15	=15	=15	=15	=15	=15	=15
8FF\L	.	(16A/LL) 16f	.	p	1r	.	.	2ff\	Ja-	.
.	.	(<16a/	.	.	.	.	.	.	.	.
8F\J 8A 8c	.	16g/	.	.	.	.	.	.	.	.
.	.	16f/JJ	.	.	.	.	.	.	.	.
8F\L 8A 8c	.	8.bn^<\L)	.	.	.	.	.	.	.	.
8F\ 8A 8c	.	.	.	.	.	.	.	.	.	.
.	.	16cc\Jk)	.	.	.	.	.	.	.	.
8F\ 8A 8c	.	16r	.	.	.	.	.	4.cc\	-kiś	.
.	.	(16aa\LL	.	.	.	.	.	.	.	.
8F\ 8A 8c	.	16gg\	.	.	.	.	.	.	.	.
.	.	16ff\JJ	.	.	.	.	.	.	.	.
8F\ 8A 8c	.	8.bbn^<\L	.	.	.	.	.	.	.	.
8F\J 8A 8c	.	.	.	.	.	.	.	8a/	ty	.
.	.	16ccc\Jk)	.	.	.	.	.	.	.	.
=16	=16	=16	=16	=16	=16	=16	=16	=16	=16	=16
!	!	!LO:TX:a:t=P:problem:mixed beam	!	!	!	!	!	!	!	!
(>8FF/L	<	8fff\L	.	.	1r	.	.	4g/	bla-	.
16GG/L	.	8A/J 8c 8f	.	.	.	.	.	.	.	.
16GG#X/JJ	.	.	.	.	.	.	.	.	.	.
16AA/LL	.	8A/L 8c 8f	.	.	.	.	.	8f/	-dy	.
16BB-/	.	.	.	.	.	.	.	.	.	.
16BBn/	.	8A/ 8c 8f	.	.	.	.	.	8f/	ach!	.
16C/JJ	.	.	.	.	.	.	.	.	.	.
*Xtremolo	*	*	*	*	*	*	*	*	*	*
16D-X/LL	[ >	8A/ 8c 8f	.	.	.	.	.	4f/	w mo-	.
16C/	.	.	.	.	.	.	.	.	.	.
16D-/	.	8A/ 8c 8f	.	.	.	.	.	.	.	.
16C/JJ	.	.	.	.	.	.	.	.	.	.
16BB/LL	.	8A/ 8c 8f	.	.	.	.	.	8f/	-jej	.
16BB-X/	.	.	.	.	.	.	.	.	.	.
16AA/	.	8A/J 8c 8f	.	.	.	.	.	8g/	o-	.
16GGn/JJ)	]]	.	.	.	.	.	.	.	.	.
!!LO:LB:g=original	!	!	!	!	!	!	!	!	!
=17	=17	=17	=17	=17	=17	=17	=17	=17	=17	=17
8FF\L	.	16A/LL 16c 16f	.	.	2r	.	.	4a/	-bro-	.
.	.	(16a/	.	.	.	.	.	.	.	.
8F\J 8A 8c	.	16g/	.	.	.	.	.	.	.	.
.	.	16f/JJ	.	.	.	.	.	.	.	.
8F\L 8A 8c	.	4cc/)	.	.	.	.	.	4a/	-nie	.
8F\J 8A 8c	.	.	.	.	.	.	.	.	.	.
8D\L	.	16r	.	.	4r	.	.	8dd\	tyś	.
.	.	(16aa\LL	.	.	.	.	.	.	.	.
8A\J 8c	.	16gg\	.	.	.	.	.	8cc\	nie	.
.	.	16ff#X\JJ	.	.	.	.	.	.	.	.
8A\L 8c	.	4ddd\)	.	.	8r	.	.	8b-\	szczę-	.
8A\J 8c	.	.	.	.	8dd\	Do-	.	8a/	-dził	.
=18	=18	=18	=18	=18	=18	=18	=18	=18	=18	=18
(8GG/L	<	8bb-\L	.	.	4gg\	-pó-	.	4b-\	krwi	.
16AA/L	.	8d\J 8g 8b-	.	.	.	.	.	.	.	.
16BB-/JJ	.	.	.	.	.	.	.	.	.	.
*	*	*tremolo	*	*	*	*	*	*	*	*
16BBn/LL	.	8d/L 8g 8b-	.	.	4dd\	-ki	.	4r	.	.
16C/	.	.	.	.	.	.	.	.	.	.
16C#X/	.	8d/ 8g 8b-	.	.	.	.	.	.	.	.
16D/JJ	.	.	.	.	.	.	.	.	.	.
16E-X/LL	[ >	8d/ 8g 8b-	.	.	4ee-X\	ży-	.	2r	.	.
16D/	.	.	.	.	.	.	.	.	.	.
16E-/	.	8d/ 8g 8b-	.	.	.	.	.	.	.	.
16D/JJ	.	.	.	.	.	.	.	.	.	.
16C#/LL	.	8d/ 8g 8b-	.	.	8dd\	-cie	.	.	.	.
16Cn/	.	.	.	.	.	.	.	.	.	.
16BB-X/	.	8d/J 8g 8b-	.	.	8dd\	tleć	.	.	.	.
16AA/JJ)	]]	.	.	.	.	.	.	.	.	.
=19	=19	=19	=19	=19	=19	=19	=19	=19	=19	=19
8GG\L	.	(16d/LL 16g 16b-	.	.	4dd\	bę-	.	1r	.	.
.	.	16b-/	.	.	.	.	.	.	.	.
8D\J 8G 8B-	.	16a/	.	.	.	.	.	.	.	.
.	.	16g/JJ	.	.	.	.	.	.	.	.
*tremolo	*	*	*	*	*	*	*	*	*	*
8D\L 8G 8B-	.	8.cc#X^<\L	.	.	8ccn\	-dzie	.	.	.	.
8D\ 8G 8B-	.	.	.	.	8b-\	w mam	.	.	.	.
.	.	16dd\Jk)	.	.	.	.	.	.	.	.
8D\ 8G 8B-	.	16r	.	.	4a/	ło-	.	.	.	.
.	.	(16bb-\LL	.	.	.	.	.	.	.	.
8D\ 8G 8B-	.	16aa\	.	.	.	.	.	.	.	.
.	.	16gg\JJ	.	.	.	.	.	.	.	.
8D\ 8G 8B-	.	8.ccc#X^<\L	.	.	8g/	-nie	.	.	.	.
8D\J 8G 8B-	.	.	.	.	8r	.	.	.	.	.
.	.	16ddd\Jk)	.	.	.	.	.	.	.	.
!!LO:LB:g=original	!	!	!	!	!	!	!	!	!
=20	=20	=20	=20	=20	=20	=20	=20	=20	=20	=20
(>8GG/L	<	8ggg\L	.	.	8.dd\	wszy-	.	1r	.	.
16GG#/L	.	8g\ 8b-	.	.	.	.	.	.	.	.
16AA/JJ	.	.	.	.	16dd\	-stką	.	.	.	.
16BB-/LL	.	8g\yy 8b-yy	.	.	4dd\	krew	.	.	.	.
16BBn/	.	.	.	.	.	.	.	.	.	.
16C/	.	8g\Jyy 8b-yy	.	.	.	.	.	.	.	.
16C#X/JJ	.	.	.	.	.	.	.	.	.	.
16D/LL	[ >	8g/L 8b-	.	.	4gg\	Ma-	.	.	.	.
16C#/	.	.	.	.	.	.	.	.	.	.
16D/	.	8g/ 8b-	.	.	.	.	.	.	.	.
16Cn/JJ	.	.	.	.	.	.	.	.	.	.
16BB/LL	.	8g/ 8b-	.	.	4b-\	-rjo	.	.	.	.
16AA/	.	.	.	.	.	.	.	.	.	.
16GGn/	.	8g/J 8b-	.	.	.	.	.	.	.	.
16FF/JJ)	]]	.	.	.	.	.	.	.	.	.
=21	=21	=21	=21	=21	=21	=21	=21	=21	=21	=21
8EE\L	.	16g\LL 16b-	.	.	4dd\	ach!	.	1r	.	.
.	.	(16bb-\	.	.	.	.	.	.	.	.
8E\J 8G 8c	.	16aa\	.	.	.	.	.	.	.	.
.	.	16gg\JJ	.	.	.	.	.	.	.	.
8E\L 8G 8c	.	8.ff#X^<\L	.	.	8r	.	.	.	.	.
8E\ 8G 8c	.	.	.	.	8dd\	po-	.	.	.	.
.	.	16gg\Jk)	.	.	.	.	.	.	.	.
8E\ 8G 8c	.	16r	.	.	4cc\	-świę-	.	.	.	.
.	.	(16b-/LL	.	.	.	.	.	.	.	.
8E\ 8G 8c	.	16a/	.	.	.	.	.	.	.	.
.	.	16g/JJ	.	.	.	.	.	.	.	.
8E\ 8G 8c	.	8.f#X^>/L	.	.	4b-\	-cę	.	.	.	.
8E\J 8G 8c	.	.	.	.	.	.	.	.	.	.
.	.	16g/Jk)	.	.	.	.	.	.	.	.
=22	=22	=22	=22	=22	=22	=22	=22	=22	=22	=22
8FF\L	.	16r	.	.	4a/	ci	.	2ff\	Nie-	.
.	.	(16a/LL	.	.	.	.	.	.	.	.
8F\J 8A 8c	.	16g/	.	.	.	.	.	.	.	.
.	.	16f/JJ	.	.	.	.	.	.	.	.
8F\L 8A 8c	.	8.bn^<\L	.	.	4r	.	.	.	.	.
8F\ 8A 8c	.	.	.	.	.	.	.	.	.	.
.	.	16cc\Jk)	.	.	.	.	.	.	.	.
8F\ 8A 8c	.	16r	.	.	2r	.	.	4f/	-ba!	.
.	.	(16aa\LL	.	.	.	.	.	.	.	.
8F\ 8A 8c	.	16gg\	.	.	.	.	.	.	.	.
.	.	16ff\JJ	.	.	.	.	.	.	.	.
8F\ 8A 8c	.	8.bbn^<\L	.	.	.	.	.	4r	.	.
8F\J 8A 8c	.	.	.	.	.	.	.	.	.	.
.	.	16ccc\Jk)	.	.	.	.	.	.	.	.
!!LO:PB:g=original	!	!	!	!	!	!	!	!	!
=23	=23	=23	=23	=23	=23	=23	=23	=23	=23	=23
8FF\L	.	16r	.	.	1r	.	.	4.ff\	Ja-	.
.	.	(16fff\LL	.	.	.	.	.	.	.	.
8F\J 8G#X 8Bn	.	16eee\	.	.	.	.	.	.	.	.
.	.	16ddd\JJ	.	.	.	.	.	.	.	.
8F\L 8G# 8B	.	8.ccc#X^<\L	.	.	.	.	.	.	.	.
8F\ 8G# 8B	.	.	.	.	.	.	.	8ff\	-każ	.
.	.	16ddd\Jk)	.	.	.	.	.	.	.	.
8F\ 8G# 8B	.	16r	.	.	.	.	.	4.ee\	myśl	.
.	.	(16ff\LL	.	.	.	.	.	.	.	.
8F\ 8G# 8B	.	16ee\	.	.	.	.	.	.	.	.
.	.	16dd\JJ	.	.	.	.	.	.	.	.
8F\ 8G# 8B	.	8.cc#X^<\L	.	.	.	.	.	.	.	.
8F\J 8G# 8B	.	.	.	.	.	.	.	8dd\	zu-	.
.	.	16dd\Jk)	.	.	.	.	.	.	.	.
=24	=24	=24	=24	=24	=24	=24	=24	=24	=24	=24
8FF\L	.	16r	.	.	1r	.	.	4.cc\	-chwa-	.
.	.	(16a/LL	.	.	.	.	.	.	.	.
8F\J 8A 8c	.	16g/	.	.	.	.	.	.	.	.
.	.	16f/JJ	.	.	.	.	.	.	.	.
8F\L 8A 8c	.	8.bn^<\L	.	.	.	.	.	.	.	.
8F\ 8A 8c	.	.	.	.	.	.	.	8a/	.	.
.	.	16cc\Jk)	.	.	.	.	.	.	.	.
8F\ 8A 8c	.	16r	.	.	.	.	.	4f/	-ła	.
.	.	(16aa\LL	.	.	.	.	.	.	.	.
8F\ 8A 8c	.	16gg\	.	.	.	.	.	.	.	.
.	.	16ff\JJ	.	.	.	.	.	.	.	.
8F\ 8A 8c	.	8.bbn^<\L	.	.	.	.	.	8f/	na	.
8F\J 8A 8c	.	.	.	.	.	.	.	8f/	te	.
.	.	16ccc\Jk)	.	.	.	.	.	.	.	.
=25	=25	=25	=25	=25	=25	=25	=25	=25	=25	=25
8FF\L	.	16r	.	.	1r	.	.	4.ff\	brze-	.
.	.	(16fff\LL	.	.	.	.	.	.	.	.
8F\J 8G#X 8Bn	.	16eee\	.	.	.	.	.	.	.	.
.	.	16ddd\JJ	.	.	.	.	.	.	.	.
8F\L 8G# 8B	.	8.ccc#X^<\L	.	.	.	.	.	.	.	.
8F\ 8G# 8B	.	.	.	.	.	.	.	8ff\	-gi	.
.	.	16ddd\Jk)	.	.	.	.	.	.	.	.
8F\ 8G# 8B	.	16r	.	.	.	.	.	4.ee\	cię	.
.	.	(16ff\LL	.	.	.	.	.	.	.	.
8F\ 8G# 8B	.	16ee\	.	.	.	.	.	.	.	.
.	.	16dd\JJ	.	.	.	.	.	.	.	.
8F\ 8G# 8B	.	8.cc#X^<\L	.	.	.	.	.	.	.	.
8F\J 8G# 8B	.	.	.	.	.	.	.	8dd\	przy-	.
.	.	16dd\Jk)	.	.	.	.	.	.	.	.
!!LO:LB:g=original	!	!	!	!	!	!	!	!	!
=26	=26	=26	=26	=26	=26	=26	=26	=26	=26	=26
8FF/L	.	16r	.	.	1r	.	.	(4.cc\	-zwa-	.
.	.	(16a/LL	.	.	.	.	.	.	.	.
8F\J 8A 8c	.	16g/	.	.	.	.	.	.	.	.
.	.	16f/JJ)	.	.	.	.	.	.	.	.
8F\L 8A 8c	.	(8.bn\L	.	.	.	.	.	.	.	.
8F\ 8A 8c	.	.	.	.	.	.	.	8a/)	.	.
.	.	16cc\Jk)	.	.	.	.	.	.	.	.
8F\ 8A 8c	.	16r	.	.	.	.	.	4f/	-ła	.
.	.	(16aa\LL	.	.	.	.	.	.	.	.
8F\ 8A 8c	.	16gg\	.	.	.	.	.	.	.	.
.	.	16ff\JJ)	.	.	.	.	.	.	.	.
8F\ 8A 8c	.	(8.bbn\L	.	.	.	.	.	4r	.	.
8F\J 8A 8c	.	.	.	.	.	.	.	.	.	.
.	.	16ccc\Jk)	.	.	.	.	.	.	.	.
=27	=27	=27	=27	=27	=27	=27	=27	=27	=27	=27
8FF#X\L	.	16r	.	.	4dd\	Mógł-	.	1r	.	.
.	.	(16cc\LL	.	.	.	.	.	.	.	.
8F#X\J 8A 8c	.	16b-\	.	.	.	.	.	.	.	.
.	.	16a\JJ	.	.	.	.	.	.	.	.
8F#\L 8A 8c	.	8.cc#X^<\L	.	.	8dd\	-żem	.	.	.	.
8F#\ 8A 8c	.	.	.	.	8dd\	o	.	.	.	.
.	.	16dd\Jk)	.	.	.	.	.	.	.	.
8F#\ 8A 8c	.	16r	.	.	4dd\	Ma-	.	.	.	.
.	.	(16ccc\LL	.	.	.	.	.	.	.	.
8F#\ 8A 8c	.	16bb-\	.	.	.	.	.	.	.	.
.	.	16aa\JJ	.	.	.	.	.	.	.	.
8F#\ 8A 8c	.	8.ccc#X^<\L	.	.	4dd\	-rjo	.	.	.	.
8F#\J 8A 8c	.	.	.	.	.	.	.	.	.	.
.	.	16ddd\Jk)	.	.	.	.	.	.	.	.
=28	=28	=28	=28	=28	=28	=28	=28	=28	=28	=28
8GG\L	.	16r	.	.	4dd\	wy-	.	1r	.	.
.	.	(16b-\LL	.	.	.	.	.	.	.	.
8D\J 8G 8B-	.	16a\	.	.	.	.	.	.	.	.
.	.	16g\JJ	.	.	.	.	.	.	.	.
8D\L 8G 8B-	.	8.cc#X^<\L	.	.	8ccn\	-trwać	.	.	.	.
8D\ 8G 8B-	.	.	.	.	8b-\	zda-	.	.	.	.
.	.	16dd\Jk)	.	.	.	.	.	.	.	.
8D\ 8G 8B-	.	16r	.	.	4a/	-le-	.	.	.	.
.	.	(16bb-\LL	.	.	.	.	.	.	.	.
8D\ 8G 8B-	.	16aa\	.	.	.	.	.	.	.	.
.	.	16gg\JJ	.	.	.	.	.	.	.	.
8D\ 8G 8B-	.	8.ccc#X^<\L	.	.	4g/	-ka	.	.	.	.
8D\J 8G 8B-	.	.	.	.	.	.	.	.	.	.
.	.	16ddd\Jk)	.	.	.	.	.	.	.	.
!!LO:LB:g=original	!	!	!	!	!	!	!	!	!
=29	=29	=29	=29	=29	=29	=29	=29	=29	=29	=29
!	!	!	!	!	!LO:TX:a:t=D. ŻUAN.	!	!	!	!	!
8EE-X\L	.	16r	.	.	4gg\	kie-	.	1ryy	.	.
!	!	!LO:TX:b:t=cres-:ext=cd:problem:text with extention lines 	!	!	!	!	!	!	!	!
.	.	(16bb-\LL	.	<	.	.	.	.	.	.
8E-X\J 8G 8B-	.	16aa\	.	.	.	.	.	.	.	.
.	.	16gg\JJ	.	.	.	.	.	.	.	.
8E-\L 8G 8B-	.	8.ff#X\L	.	.	8.cc#X\	-dy	.	.	.	.
8E-\ 8G 8B-	.	.	.	.	.	.	.	.	.	.
.	.	16gg\Jk)	.	.	16cc#\	prze-	.	.	.	.
8E-\ 8G 8B-	.	16r	.	.	8cc#\	-mo-	.	.	.	.
.	.	(16bb-\LL	.	.	.	.	.	.	.	.
8E-\J 8G 8B-	.	16aa\	.	.	16cc#\	-cą	.	.	.	.
.	.	16gg\JJ	.	.	16cc#\	ro-	.	.	.	.
8E-\L 8G	.	8.gg\L	.	.	8cc#\	-złą-	.	.	.	.
8E-\J 8G	.	.	.	.	16cc#\	-czył	.	.	.	.
.	.	16cc#X\Jk)	.	[[	16cc#\	nas	.	.	.	.
=30	=30	=30	=30	=30	=30	=30	=30	=30	=30	=30
8DD\L	.	16r	.	f	4dd\	wróg	.	1ryy	.	.
.	.	(16ff#X\LL	.	.	.	.	.	.	.	.
8D\J 8F#X 8A	.	16een\	.	.	.	.	.	.	.	.
.	.	16dd\JJ	.	.	.	.	.	.	.	.
8D\L 8F# 8A	.	8.gg#X^<\L	.	.	4r	.	.	.	.	.
8D\ 8F# 8A	.	.	.	.	.	.	.	.	.	.
.	.	16aa\Jk)	.	.	.	.	.	.	.	.
8D\ 8F# 8A	.	16r	.	.	4dd\	ach!	.	.	.	.
.	.	(16aa\LL	.	.	.	.	.	.	.	.
8D\ 8F# 8A	.	16ggn\	.	.	.	.	.	.	.	.
.	.	16ff#\JJ	.	.	.	.	.	.	.	.
8D\ 8F# 8A	.	8.ccc#X^<\L	.	.	4r	.	.	.	.	.
8D\J 8F# 8A	.	.	.	.	.	.	.	.	.	.
.	.	16ddd\Jk)	.	.	.	.	.	.	.	.
=31	=31	=31	=31	=31	=31	=31	=31	=31	=31	=31
8D\L 8G 8B-	.	16r	.	.	8dd\	ja-	.	1ryy	.	.
.	.	(16ddd\LL	.	.	.	.	.	.	.	.
8D\ 8G 8B-	.	16ccc\	.	.	8dd\	-ka-	.	.	.	.
.	.	16bb-\JJ	.	.	.	.	.	.	.	.
8D\ 8G 8B-	.	8.aa^<\L	.	.	8dd\	-kol-	.	.	.	.
8D\J 8G 8B-	.	.	.	.	8dd\	-wiek	.	.	.	.
.	.	16gg\Jk)	.	.	.	.	.	.	.	.
8D\L 8G 8B-	.	16r	.	.	4dd\	do-	.	.	.	.
.	.	(16bb-\LL	.	.	.	.	.	.	.	.
8D\ 8G 8B-	.	16aa\	.	.	.	.	.	.	.	.
.	.	16gg\JJ	.	.	.	.	.	.	.	.
8D\ 8G 8B-	.	8.gg^<\L	.	.	8b-\	-la	.	.	.	.
8D\J 8G 8B-	.	.	.	.	8g/	nas	.	.	.	.
.	.	16cc#X\Jk)	.	.	.	.	.	.	.	.
!!LO:PB:g=original	!	!	!	!	!	!	!	!	!
=32	=32	=32	=32	=32	=32	=32	=32	=32	=32	=32
16D\LL 16F#X	.	16r	.	f	4a/	cze-	.	1ryy	.	.
16A\	.	(16ff#X\LL	.	.	.	.	.	.	.	.
16D\ 16F#	.	16ee\	.	.	.	.	.	.	.	.
16A\	.	16dd\JJ	.	.	.	.	.	.	.	.
16D\ 16F#	.	8.gg#X^<\L	.	.	8d/	-ka	.	.	.	.
16A\	.	.	.	.	.	.	.	.	.	.
16D\ 16F#	.	.	.	.	8r	.	.	.	.	.
16A\JJ	.	16aa\Jk)	.	.	.	.	.	.	.	.
16D\LL 16F#	.	16r	.	.	4dd\	pra-	.	.	.	.
16A\	.	(16aa\LL	.	.	.	.	.	.	.	.
16D\ 16F#	.	16ggn\	.	.	.	.	.	.	.	.
16A\	.	16ff#\JJ	.	.	.	.	.	.	.	.
16D\ 16F#	.	8.ccc#X^<\L	.	.	8dd\	-gnę	.	.	.	.
16A\	.	.	.	.	.	.	.	.	.	.
16D\ 16F#	.	.	.	.	8dd\	przy-	.	.	.	.
16A\JJ	.	16ddd\Jk)	.	.	.	.	.	.	.	.
=33	=33	=33	=33	=33	=33	=33	=33	=33	=33	=33
16D\LL 16G	.	16r	.	.	4dd\	-naj-	.	1ryy	.	.
16B-\	.	(16ddd\LL	.	.	.	.	.	.	.	.
16D\ 16G	.	16ccc\	.	.	.	.	.	.	.	.
16B-\	.	16bb-\JJ	.	.	.	.	.	.	.	.
16D\ 16G	.	8.aa^<\L	.	.	4dd\	-mniej	.	.	.	.
16B-\	.	.	.	.	.	.	.	.	.	.
16D\ 16G	.	.	.	.	.	.	.	.	.	.
16B-\JJ	.	16gg\Jk)	.	.	.	.	.	.	.	.
16D\LL 16G	.	16r	.	.	8gg\	sko-	.	.	.	.
16B-\	.	(16bb-\LL	.	.	.	.	.	.	.	.
16D\ 16G	.	16aa\	.	.	8b-\	-nać	.	.	.	.
16B-\	.	16gg\JJ	.	.	.	.	.	.	.	.
16D\ 16G	.	8.gg^<\L	.	.	8a/	u	.	.	.	.
16B-\	.	.	.	.	.	.	.	.	.	.
16D\ 16G	.	.	.	.	8g/	twych	.	.	.	.
16B-\JJ	.	16cc#X\Jk)	.	.	.	.	.	.	.	.
=34	=34	=34	=34	=34	=34	=34	=34	=34	=34	=34
8DD\L	.	8dd\L	.	ff	2dd\	nóg.	.	1ryy	.	.
8D\J 8F#X 8A	.	(16ddd\L	.	.	.	.	.	.	.	.
.	.	16aa\JJ)	.	.	.	.	.	.	.	.
*	*	*Xtremolo	*	*	*	*	*	*	*	*
8D\L 8F# 8A	.	(16aa\LL	.	.	.	.	.	.	.	.
.	.	16ff#X\)	.	.	.	.	.	.	.	.
8D\ 8F# 8A	.	(16ff#\	.	.	.	.	.	.	.	.
.	.	16dd\JJ)	.	.	.	.	.	.	.	.
8D\ 8F# 8A	.	(16dd\LL	.	.	2r	.	.	.	.	.
.	.	16aa\)	.	.	.	.	.	.	.	.
8D\ 8F# 8A	.	(16aa\	.	.	.	.	.	.	.	.
.	.	16ff#\JJ)	.	.	.	.	.	.	.	.
8D\ 8F# 8A	.	(16ff#\LL	.	.	.	.	.	.	.	.
.	.	16dd\)	.	.	.	.	.	.	.	.
8D\J 8F# 8A	.	(16dd\	.	.	.	.	.	.	.	.
.	.	16a\JJ)	.	.	.	.	.	.	.	.
!!LO:LB:g=original	!	!	!	!	!	!	!	!	!
=35	=35	=35	=35	=35	=35	=35	=35	=35	=35	=35
8D\L 8F#X 8A	.	(16a\LL	.	.	1ryy	.	.	1ryy	.	.
.	.	16ff#X\)	.	.	.	.	.	.	.	.
8D\ 8F# 8A	.	(16ff#\	.	.	.	.	.	.	.	.
.	.	16dd\JJ)	.	.	.	.	.	.	.	.
8D\ 8F# 8A	.	(16dd/LL	.	.	.	.	.	.	.	.
.	.	16a/)	.	.	.	.	.	.	.	.
8D\J 8F# 8A	.	(16a/	.	.	.	.	.	.	.	.
.	.	16f#X/JJ)	.	.	.	.	.	.	.	.
8D\L 8F# 8A	.	(16f#/LL	.	.	.	.	.	.	.	.
.	.	16dd/)	.	.	.	.	.	.	.	.
8D\ 8F# 8A	.	(16dd/	.	.	.	.	.	.	.	.
.	.	16a/JJ)	.	.	.	.	.	.	.	.
8D\ 8F# 8A	.	(16a/LL	.	.	.	.	.	.	.	.
.	.	16f#/)	.	.	.	.	.	.	.	.
8D\J 8F# 8A	.	(16f#/	.	.	.	.	.	.	.	.
.	.	16d/JJ)	.	.	.	.	.	.	.	.
=36	=36	=36	=36	=36	=36	=36	=36	=36	=36	=36
4D\ 4F#X 4A	.	4d/	.	.	1ryy	.	.	1ryy	.	.
4r	.	4r	.	.	.	.	.	.	.	.
2r	.	2r	.	.	.	.	.	.	.	.
=37	=37	=37	=37	=37	=37	=37	=37	=37	=37	=37
8EE-X/L 8E-X	.	8e-X/L	.	f	1ryy	.	.	1ryy	.	.
8CC#X/J 8C#X	.	8c#X/J	.	.	.	.	.	.	.	.
4DD/ 4D	.	4d/	.	.	.	.	.	.	.	.
2r	.	2r	.	.	.	.	.	.	.	.
=38	=38	=38	=38	=38	=38	=38	=38	=38	=38	=38
8DD/L 8D	.	8d/L	.	.	1ryy	.	.	1ryy	.	.
8BBBn/J 8BBn	.	8Bn/J	.	.	.	.	.	.	.	.
4CCn/ 4Cn	.	4cn/	.	.	.	.	.	.	.	.
2r	.	2r	.	.	.	.	.	.	.	.
=39	=39	=39	=39	=39	=39	=39	=39	=39	=39	=39
8CC/L 8C	.	8c/L	.	p	1ryy	.	.	1ryy	.	.
8AAA/J 8AA	.	8A/J	.	.	.	.	.	.	.	.
4BBB-X/ 4BB-X	.	4B-X/	.	.	.	.	.	.	.	.
2r	.	2r	.	.	.	.	.	.	.	.
=40	=40	=40	=40	=40	=40	=40	=40	=40	=40	=40
4AAA/ 4AA	.	4A/	.	pp	1ryy	.	.	1ryy	.	.
4r	.	4r	.	.	.	.	.	.	.	.
4DD/ 4D	.	4d/	.	.	.	.	.	.	.	.
4r;	.	4r;	.	.	.	.	.	.	.	.
!!LO:PB:g=original	!	!	!	!	!	!	!	!	!
=41||	=41||	=41||	=41||	=41||	=41||	=41||	=41||	=41||	=41||	=41||
*clefF4	*	*clefG2	*	*	*clefG2	*	*	*clefG2	*	*
*k[b-e-]	*	*k[b-e-]	*	*	*k[b-e-]	*	*	*k[b-e-]	*	*
*M4/4	*	*M4/4	*	*	*M4/4	*	*	*M4/4	*	*
*met(c)	*	*met(c)	*	*	*met(c)	*	*	*met(c)	*	*
*Xtremolo	*	*	*	*	*	*	*	*	*	*
!	!	!	!	!	!	!	!	!LO:TX:B:a:t=Allegro agitato.	!	!
8GG\L	.	8D</L 8G< 8B-<	.	p	1ryy	.	.	1r	.	.
8GG\J	.	8D</J 8G< 8B-<	.	.	.	.	.	.	.	.
4GG\	.	4D</ 4G< 4B-<	.	.	.	.	.	.	.	.
8GG\L	.	8D</L 8G< 8B-<	.	.	.	.	.	.	.	.
8GG\J	.	8D</J 8G< 8B-<	.	.	.	.	.	.	.	.
4GG\	.	4D</ 4G< 4B-<	.	.	.	.	.	.	.	.
=42	=42	=42	=42	=42	=42	=42	=42	=42	=42	=42
!	!	!	!	!	!	!	!	!LO:TX:a:t=D. MARYA.	!	!
8GG\L	.	8D</L 8G< 8B-<	.	.	1ryy	.	.	1r	.	.
8GG\J	.	8D</J 8G< 8B-<	.	.	.	.	.	.	.	.
4GG\	.	4D</ 4G< 4B-<	.	.	.	.	.	.	.	.
8GG\L	.	8D</L 8G< 8B-<	.	.	.	.	.	.	.	.
8GG\J	.	8D</J 8G< 8B-<	.	.	.	.	.	.	.	.
4GG\	.	4D</ 4G< 4B-<	.	.	.	.	.	.	.	.
=43	=43	=43	=43	=43	=43	=43	=43	=43	=43	=43
8GG/L 8BB- 8D 8G	.	1r	.	.	1ryy	.	.	(8g/L	Mi-	.
8GG/J 8BB- 8D 8G	.	.	.	.	.	.	.	8a/J)	.	.
4GG/ 4BB- 4D 4G	.	.	.	.	.	.	.	4b-\	-mo	.
8GG/L 8BB- 8D 8G	.	.	.	.	.	.	.	(8b-\L	bu-	.
8GG/J 8BB- 8D 8G	.	.	.	.	.	.	.	8cc\J)	.	.
4GG/ 4BB- 4D 4G	.	.	.	.	.	.	.	4dd\	-rzę	.
=44!|:	=44!|:	=44!|:	=44!|:	=44!|:	=44!|:	=44!|:	=44!|:	=44!|:	=44!|:	=44!|:
!	!	!	!	!	!	!	!	!	!	!LO:DY:a
8GG/L 8BB- 8D 8G	.	1r	.	.	1ryy	.	.	(8dd\L	gro-	<
8GG/J 8BB- 8D 8G	.	.	.	.	.	.	.	8ee-\J)	.	.
4GG/ 4BB- 4D 4G	.	.	.	.	.	.	.	4dd\	-źne	.
8GG/L 8BB- 8D 8G	.	.	.	.	.	.	.	(8dd\L	mo-	.
8GG/J 8BB- 8D 8G	.	.	.	.	.	.	.	8ff#X\J)	.	.
4GG/ 4BB- 4D 4G	.	.	.	.	.	.	.	4gg\	-rze	[[
=45	=45	=45	=45	=45	=45	=45	=45	=45	=45	=45
!	!	!	!	!	!	!	!	!	!	!LO:DY:a
8GG/L 8BB- 8D 8G	.	1r	.	.	1ryy	.	.	8gg\L	spie-	>
8GG/J 8BB- 8D 8G	.	.	.	.	.	.	.	8ffn\J	.	.
4GG/ 4BB- 4D 4G	.	.	.	.	.	.	.	4ee-\	-szył	.
8GG/L 8BB- 8D 8G	.	.	.	.	.	.	.	8ee-\L	do	.
8GG/J 8BB- 8D 8G	.	.	.	.	.	.	.	8dd\J	.	.
4GG/ 4BB- 4D 4G	.	.	.	.	.	.	.	4cc\	tych	]]
!!LO:LB:g=original	!	!	!	!	!	!	!	!	!
=46	=46	=46	=46	=46	=46	=46	=46	=46	=46	=46
8GG/L 8BB- 8D 8G	.	2.dd^<\ 2.ddd	.	.	1ryy	.	.	2.dd^\	stron	.
8GG/J 8BB- 8D 8G	.	.	.	.	.	.	.	.	.	.
4GG/ 4BB- 4D 4G	.	.	.	.	.	.	.	.	.	.
8GG/L 8BB- 8D 8G	.	.	.	.	.	.	.	.	.	.
8GG/J 8BB- 8D 8G	.	.	.	.	.	.	.	.	.	.
4GG/ 4BB- 4D 4G	.	4r	.	.	.	.	.	4r	.	.
=47	=47	=47	=47	=47	=47	=47	=47	=47	=47	=47
8FF#X/L 8AA 8C 8D	.	2r	.	.	1ryy	.	.	8a/L	A-	.
8FF#/J 8AA 8C 8D	.	.	.	.	.	.	.	8b-/J	.	.
4FF#/ 4AA 4C 4D	.	.	.	.	.	.	.	4a/	-by	.
8FF#/L 8AA 8C 8D	.	8dd^<\L 8ddd	.	.	.	.	.	8dd\L	uj-	.
8FF#/J 8AA 8C 8D	.	8ee-\J 8eee-	.	.	.	.	.	8ee-\J	.	.
4FF#/ 4AA 4C 4D	.	4dd\ 4ddd	.	.	.	.	.	4dd\	-rzeć	.
=48	=48	=48	=48	=48	=48	=48	=48	=48	=48	=48
8GG/L 8BB- 8D	.	2r	.	.	1ryy	.	.	8g/L	szczę-	.
8GG/J 8BB- 8D	.	.	.	.	.	.	.	8a/J	.	.
4GG/ 4BB- 4D	.	.	.	.	.	.	.	4g/	-ścia	.
8GG/L 8BB- 8D 8G	.	8b-\L 8bb-	.	.	.	.	.	8b-/L	zo-	.
8GG/J 8BB- 8D 8G	.	8a\J 8aa	.	.	.	.	.	8a/J	.	.
4GG/ 4BB- 4D 4G	.	4g^<\ 4gg	.	.	.	.	.	4g/	-rzę	.
=49	=49	=49	=49	=49	=49	=49	=49	=49	=49	=49
8AA/L 8D 8F	.	8f\L 8ff	.	.	1ryy	.	.	8f/L	al-	.
8AA/J 8D 8F	.	8g\J 8gg	.	.	.	.	.	8g/J	.	.
4AA/ 4D 4F	.	4f^<\ 4ff	.	.	.	.	.	4f/	-bo	.
8AA/L 8C#X 8G	.	8en\L 8een	.	.	.	.	.	8en/L	po-	.
8AA/J 8C# 8G	.	8b-\J 8bb-	.	.	.	.	.	8b-/J	.	.
4AA/ 4C# 4G	.	4a^<\ 4aa	.	.	.	.	.	4a/	-nieść	.
=50	=50	=50	=50	=50	=50	=50	=50	=50	=50	=50
8D\L 8F	.	2d/ 2dd	.	.	1ryy	.	.	2d^>/	zgon	.
8D\J 8F	.	.	.	.	.	.	.	.	.	.
4D\ 4F	.	.	.	.	.	.	.	.	.	.
8D\L 8F#X 8c	.	8dd^<\L 8ddd	.	.	.	.	.	2r	.	.
8D\J 8F# 8c	.	8ee-\J 8eee-	.	.	.	.	.	.	.	.
4D\ 4F# 4c	.	4dd\ 4ddd	.	.	.	.	.	.	.	.
!!LO:LB:g=original	!	!	!	!	!	!	!	!	!
=51	=51	=51	=51	=51	=51	=51	=51	=51	=51	=51
8G\L 8B-	.	1r	.	.	1ryy	.	.	8g/L	Wie,	.
8GG\J 8BB- 8D 8G	.	.	.	.	.	.	.	8a/J	.	.
4GG/ 4BB- 4D 4G	.	.	.	.	.	.	.	4b-\	że	.
8GG/L 8BB- 8D 8G	.	.	.	.	.	.	.	8b-\L	zgu-	.
8GG/J 8BB- 8D 8G	.	.	.	.	.	.	.	8cc\J	.	.
4GG/ 4BB- 4D 4G	.	.	.	.	.	.	.	4dd\	-bna	.
=52	=52	=52	=52	=52	=52	=52	=52	=52	=52	=52
!	!	!	!	!	!	!	!	!	!	!LO:DY:a
8GG/L 8BB- 8D 8G	.	1r	.	.	1ryy	.	.	8dd\L	przy-	<
8GG/J 8BB- 8D 8G	.	.	.	.	.	.	.	8ee-\J	.	.
4GG/ 4BB- 4D 4G	.	.	.	.	.	.	.	4dd\	-szłość	.
8GG/L 8BB- 8D 8G	.	.	.	.	.	.	.	8dd\L	cze-	.
8GG/J 8BB- 8D 8G	.	.	.	.	.	.	.	8ff#X\J	.	.
4GG/ 4BB- 4D 4G	.	.	.	.	.	.	.	4gg\	-ka	[[
=53	=53	=53	=53	=53	=53	=53	=53	=53	=53	=53
!	!	!	!	!	!	!	!	!	!	!LO:DY:a
8GG/L 8C 8E- 8G	.	2r	.	.	1ryy	.	.	8gg\L	zdra-	>
8GG/J 8C 8E- 8G	.	.	.	.	.	.	.	8ffn\J	.	.
4GG/ 4C 4E- 4G	.	.	.	.	.	.	.	4ee-\	-dny	.
8GG/L 8C 8E- 8G	.	8ee-\L 8eee-	.	.	.	.	.	8ee-\L	gro-	.
8GG/J 8C 8E- 8G	.	8dd\J 8ddd	.	.	.	.	.	8dd\J	.	.
4GG/ 4C 4E- 4G	.	4cc\ 4ccc	.	.	.	.	.	4cc\	-zi	]]
=54	=54	=54	=54	=54	=54	=54	=54	=54	=54	=54
8GG/L 8BB- 8D 8G	.	2.dd^<\ 2.ddd	.	.	1ryy	.	.	2.dd^\	cios	.
8GG/J 8BB- 8D 8G	.	.	.	.	.	.	.	.	.	.
4GG/ 4BB- 4D 4G	.	.	.	.	.	.	.	.	.	.
8GG/L 8BB- 8D 8G	.	.	.	.	.	.	.	.	.	.
8GG/J 8BB- 8D 8G	.	.	.	.	.	.	.	.	.	.
4GG/ 4BB- 4D 4G	.	4r	.	.	.	.	.	4r	.	.
=55	=55	=55	=55	=55	=55	=55	=55	=55	=55	=55
8FF#X/L 8AA 8C 8D	.	2r	.	.	1ryy	.	.	8a/L	Choć	.
8FF#/J 8AA 8C 8D	.	.	.	.	.	.	.	8b-/J	.	.
4FF#/ 4AA 4C 4D	.	.	.	.	.	.	.	4a/	ta	.
8FF#/L 8AA 8C 8D	.	8cc^<\L 8ccc	.	.	.	.	.	8cc\L	chwi-	.
8FF#/J 8AA 8C 8D	.	8b-\J 8bb-	.	.	.	.	.	8b-\J	.	.
4FF#/ 4AA 4C 4D	.	4a\ 4aa	.	.	.	.	.	4a/	-la	.
!!LO:LB:g=original	!	!	!	!	!	!	!	!	!
=56	=56	=56	=56	=56	=56	=56	=56	=56	=56	=56
8GG/L 8BB- 8D	.	2r	.	.	1ryy	.	.	8b-/L	nie-	.
8GG/J 8BB- 8D	.	.	.	.	.	.	.	8a/J	.	.
4GG/ 4BB- 4D	.	.	.	.	.	.	.	4g/	-da-	.
8C\L 8E- 8A	.	(8e-\L 8ee-	.	.	.	.	.	8e-/L	-le-	.
8C\J 8E- 8A	.	8b-\J 8bb-	.	.	.	.	.	8b-/J	.	.
4C\ 4E- 4A	.	4a^<\) 4aa	.	.	.	.	.	4a/	-ka	.
=57	=57	=57	=57	=57	=57	=57	=57	=57	=57	=57
8D\L 8G 8B-	.	(8d\L 8dd	.	.	1ryy	.	.	8d/L	je-	.
8D\J 8G 8B-	.	8a\J 8aa	.	.	.	.	.	8a/J	.	.
4D\ 4G 4B-	.	4g^<\) 4gg	.	.	.	.	.	4g/	-dnak	.
8D\L 8A 8c	.	(8d\L 8dd	.	.	.	.	.	8d/L	wiel-	.
8D\J 8A 8c	.	8g\J 8gg	.	.	.	.	.	8g/J	.	.
4D\ 4A 4c	.	4f#X^<\) 4ff#X	.	.	.	.	.	4f#X/	-bi	.
=58	=58	=58	=58	=58	=58	=58	=58	=58	=58	=58
8G\L 8B-	.	8g\L 8gg	.	.	1ryy	.	.	2g/	los	.
8GG\J 8BB- 8D 8G	.	8a\J 8aa	.	.	.	.	.	.	.	.
4GG/ 4BB- 4D 4G	.	[4g\ [4gg	.	.	.	.	.	.	.	.
8AA/L 8C#X 8G	.	8g\L] 8gg]	.	.	.	.	.	2r	.	.
8AA/J 8C# 8G	.	8fn\J 8ffn	.	.	.	.	.	.	.	.
4AA/ 4C# 4G	.	4en/ 4een	.	.	.	.	.	.	.	.
=59	=59	=59	=59	=59	=59	=59	=59	=59	=59	=59
!	!	!	!	!	!LO:TX:a:t=D. ŻUAN.	!	!	!	!	!
!	!	!	!	!	!LO:TX:t=P:problem: V2 zapisany w źródle na tej samej pieciolini co V1	!	!	!	!	!
8D\L 8F	.	4d/ 4dd	.	.	8d/L	Mi-	.	1ryy	.	.
8D\J 8F 8A	.	.	.	.	8en/J	.	.	.	.	.
4D\ 4F 4A	.	4r	.	.	4f/	-mo	.	.	.	.
8D\L 8F 8A	.	2r	.	.	8f/L	bu-	.	.	.	.
8D\J 8F 8A	.	.	.	.	8g/J	.	.	.	.	.
4D\ 4F 4A	.	.	.	.	4a/	-rzę	.	.	.	.
=60	=60	=60	=60	=60	=60	=60	=60	=60	=60	=60
8D\L 8F 8A	.	1r	.	.	8a/L	gro-	.	1ryy	.	.
8D\J 8F 8A	.	.	.	.	8b-/J	.	.	.	.	.
4D\ 4F 4A	.	.	.	.	4a/	-źne	.	.	.	.
8D\L 8F 8A	.	.	.	.	8a/L	mo-	.	.	.	.
8D\J 8F 8A	.	.	.	.	8cc#X/J	.	.	.	.	.
4D\ 4F 4A	.	.	.	.	4dd\	-rze	.	.	.	.
!!LO:LB:g=original	!	!	!	!	!	!	!	!	!
=61	=61	=61	=61	=61	=61	=61	=61	=61	=61	=61
8D\L 8G 8B-	.	1r	.	.	8dd\L	bie-	.	1ryy	.	.
8D\J 8G 8B-	.	.	.	.	8ccn\J	.	.	.	.	.
4D\ 4G 4B-	.	.	.	.	4b-\	-głem	.	.	.	.
8D\L 8G 8B-	.	.	.	.	8b-/L	do	.	.	.	.
8D\J 8G 8B-	.	.	.	.	8a/J	.	.	.	.	.
4D\ 4G 4B-	.	.	.	.	4g/	tych	.	.	.	.
=62	=62	=62	=62	=62	=62	=62	=62	=62	=62	=62
8D\L 8F 8A	.	2.a^<\ 2.aa	.	.	2.a^/	stron	.	1ryy	.	.
8D\J 8F 8A	.	.	.	.	.	.	.	.	.	.
4D\ 4F 4A	.	.	.	.	.	.	.	.	.	.
8D\L 8F 8A	.	.	.	.	.	.	.	.	.	.
8D\J 8F 8A	.	.	.	.	.	.	.	.	.	.
4D\ 4F 4A	.	4r	.	.	4r	.	.	.	.	.
=63	=63	=63	=63	=63	=63	=63	=63	=63	=63	=63
8C#X\L 8En 8A	.	2r	.	.	8en/L	a-	.	1ryy	.	.
8C#\J 8E 8A	.	.	.	.	8f/J	.	.	.	.	.
4C#\ 4E 4A	.	.	.	.	4e/	-bym	.	.	.	.
8C#\L 8E 8A	.	8a^<\L 8aa	.	.	8a/L	uj-	.	.	.	.
8C#\J 8E 8A	.	8b-\J 8bb-	.	.	8b-/J	.	.	.	.	.
4C#\ 4E 4A	.	4a\ 4aa	.	.	4a/	-rzał	.	.	.	.
=64	=64	=64	=64	=64	=64	=64	=64	=64	=64	=64
8D\L 8F 8A	.	2r	.	.	8dd\L	szczę-	.	1ryy	.	.
8D\J 8F 8A	.	.	.	.	8een\J	.	.	.	.	.
4D\ 4F 4A	.	.	.	.	4dd\	-ścia	.	.	.	.
8D\L 8F 8A 8d	.	8ff^<\L 8fff	.	.	8ff\L	ze-	.	.	.	.
8D\J 8F 8A 8d	.	8een\J 8eeen	.	.	8ee\J	.	.	.	.	.
4D\ 4F 4A 4d	.	4dd\ 4ddd	.	.	4dd\	-rze	.	.	.	.
=65	=65	=65	=65	=65	=65	=65	=65	=65	=65	=65
8En\L 8A 8c	.	8cc\L 8ccc	.	.	8cc\L	al-	.	1ryy	.	.
8E\J 8A 8c	.	8dd\J 8ddd	.	.	8dd\J	.	.	.	.	.
4E\ 4A 4c	.	4cc^<\ 4ccc	.	.	4cc\	-bo	.	.	.	.
8E\L 8G#X 8d	.	8bn\L 8bbn	.	.	(8bn\L	po-	.	.	.	.
8E\J 8G# 8d	.	8ff\J 8fff	.	.	8ff\J	.	.	.	.	.
4E\ 4G# 4d	.	4een^<\ 4eeen	.	.	4een\)	-niósł	.	.	.	.
!!LO:PB:g=original	!	!	!	!	!	!	!	!	!
=66	=66	=66	=66	=66	=66	=66	=66	=66	=66	=66
8A\L 8c	.	8a^<\L 8aa	.	.	2a^>/	zgon	.	1ryy	.	.
8AA\J 8C 8En 8A	.	8bn\J 8bbn	.	.	.	.	.	.	.	.
4AA\ 4C 4E 4A	.	4a\ 4aa	.	.	.	.	.	.	.	.
*	*	*8va	*	*	*	*	*	*	*	*
8AA\L 8C#X 8E 8G	.	8aa^<\L 8aaa	.	.	2r	.	.	.	.	.
8AA\J 8C# 8E 8G	.	8bb-X\J 8bbb-X	.	.	.	.	.	.	.	.
4AA\ 4C# 4E 4G	.	4aa\ 4aaa	.	.	.	.	.	.	.	.
*	*	*X8va	*	*	*	*	*	*	*	*
=67	=67	=67	=67	=67	=67	=67	=67	=67	=67	=67
8D\L 8F	.	1r	.	.	8d/L	wiem,	.	1ryy	.	.
8D\J 8F 8A	.	.	.	.	8en/J	.	.	.	.	.
4D\ 4F 4A	.	.	.	.	4f/	że	.	.	.	.
8D\L 8F 8A	.	.	.	.	8f/L	zgu-	.	.	.	.
8D\J 8F 8A	.	.	.	.	8g/J	.	.	.	.	.
4D\ 4F 4A	.	.	.	.	4a/	-bna	.	.	.	.
=68	=68	=68	=68	=68	=68	=68	=68	=68	=68	=68
8D\L 8F 8A	.	1r	.	.	8a/L	przy-	.	1ryy	.	.
8D\J 8F 8A	.	.	.	.	8b-/J	.	.	.	.	.
4D\ 4F 4A	.	.	.	.	4a/	-szłość	.	.	.	.
8D\L 8F 8A	.	.	.	.	8a/L	cze-	.	.	.	.
8D\J 8F 8A	.	.	.	.	8cc#X/J	.	.	.	.	.
4D\ 4F 4A	.	.	.	.	4dd\	-ka	.	.	.	.
=69	=69	=69	=69	=69	=69	=69	=69	=69	=69	=69
8D\L 8G 8B-	.	2r	.	.	8dd\L	zdra-	.	1ryy	.	.
8D\J 8G 8B-	.	.	.	.	8ccn\J	.	.	.	.	.
4D\ 4G 4B-	.	.	.	.	4b-\	-dny	.	.	.	.
8D\L 8G 8B-	.	8b-^<\L 8bb-	.	.	8b-/L	gro-	.	.	.	.
8D\J 8G 8B-	.	8a\J 8aa	.	.	8a/J	.	.	.	.	.
4D\ 4G 4B-	.	4g\ 4gg	.	.	4g/	-zi	.	.	.	.
=70	=70	=70	=70	=70	=70	=70	=70	=70	=70	=70
8D\L 8F 8A	.	2.a^<\ 2.aa	.	.	2.a^>/	cios	.	1ryy	.	.
8D\J 8F 8A	.	.	.	.	.	.	.	.	.	.
4D\ 4F 4A	.	.	.	.	.	.	.	.	.	.
8D\L 8F 8A	.	.	.	.	.	.	.	.	.	.
8D\J 8F 8A	.	.	.	.	.	.	.	.	.	.
4D\ 4F 4A	.	4r	.	.	4r	.	.	.	.	.
!!LO:LB:g=original	!	!	!	!	!	!	!	!	!
=71	=71	=71	=71	=71	=71	=71	=71	=71	=71	=71
!	!	!	!	!	!LO:TX:a:t=D. ŻUAN.	!	!	!LO:TX:a:t=D. MARYA.	!	!
8C#X\L 8En 8A	.	2r	.	.	8een\L	Choć	.	1r	.	.
8C#\J 8E 8A	.	.	.	.	8ff\J	.	.	.	.	.
4C#\ 4E 4A	.	.	.	.	4ee\	ta	.	.	.	.
*	*	*8va	*	*	*	*	*	*	*	*
8C#\L 8E 8A	.	8gg\L 8ggg	.	.	8gg\L	chwi-	.	.	.	.
8C#\J 8E 8A	.	8ff\J 8fff	.	.	8ff\J	.	.	.	.	.
4C#\ 4E 4A	.	4een/ 4eeen	.	.	4ee\	-la	.	.	.	.
*	*	*X8va	*	*	*	*	*	*	*	*
=72	=72	=72	=72	=72	=72	=72	=72	=72	=72	=72
8D\L 8F 8A	.	2r	.	.	8ff\L	nie-	.	1r	.	.
8D\J 8F 8A	.	.	.	.	8een\J	.	.	.	.	.
4D\ 4F 4A	.	.	.	.	4dd\	-da-	.	.	.	.
8GG/L 8BB- 8En	.	8b-\L 8bb-	.	.	8b-\L	-le-	.	.	.	.
8GG/J 8BB- 8E	.	8ff\J 8fff	.	.	8ff\J	.	.	.	.	.
4GG/ 4BB- 4E	.	4een^<\ 4eeen	.	.	4ee\	-ka	.	.	.	.
=73	=73	=73	=73	=73	=73	=73	=73	=73	=73	=73
8AA/L 8D 8F	.	8a\L 8aa	.	.	8a\L	lecz	.	1r	.	.
8AA/J 8D 8F	.	8een\J 8eeen	.	.	8een\J	.	.	.	.	.
4AA/ 4D 4F	.	4dd^<\ 4ddd	.	.	4dd\	mój	.	.	.	.
8AA\L 8En 8G	.	8a\L 8aa	.	.	8a\L	wiel-	.	.	.	.
8AA\J 8E 8G	.	8dd\J 8ddd	.	.	8dd\J	.	.	.	.	.
4AA\ 4E 4G	.	4cc#X^<\ 4ccc#X	.	.	4cc#X\	-bię	.	.	.	.
=74	=74	=74	=74	=74	=74	=74	=74	=74	=74	=74
8D\L 8F	.	8dd\L 8ddd	.	.	2dd\	los	.	1r	.	.
8D\J 8F	.	8ee-X\J 8eee-X	.	.	.	.	.	.	.	.
4D\ 4F	.	4dd\ 4ddd	.	.	.	.	.	.	.	.
8D\L 8F#X 8c	.	8cc\L 8ccc	.	.	2r	.	.	.	.	.
8D\J 8F# 8c	.	8b-\J 8bb-	.	.	.	.	.	.	.	.
4D\ 4F# 4c	.	4a\ 4aa	.	.	.	.	.	.	.	.
=75	=75	=75	=75	=75	=75	=75	=75	=75	=75	=75
*^	*	*	*	*	*	*	*	*	*	*
8GG/L	2ryy	.	4g\ 4gg	.	.	2dd\	Wiem	.	2b-\	Wie	.
8AA/J	.	.	.	.	.	.	.	.	.	.	.
4BB-/	.	.	4B-/ 4d 4g	.	.	.	.	.	.	.	.
8BB-/L	8GG\L	.	8B-/L 8d 8g	.	.	2dd\	że	.	2b-\	że	.
8C/J	8GG\J	.	8B-/J 8d 8g	.	.	.	.	.	.	.	.
4D/	4GG\	.	4B-/ 4d 4g	.	.	.	.	.	.	.	.
!!LO:LB:g=original	!	!	!	!	!	!	!	!	!	!
=76	=76	=76	=76	=76	=76	=76	=76	=76	=76	=76	=76
8D/L	8GG\L	.	8B-/L 8d 8g	.	.	2.dd\	zgu-	.	2.b-\	zgu-	.
8E-/J	8GG\J	.	8B-/J 8d 8g	.	.	.	.	.	.	.	.
4D/	4GG\	.	4B-/ 4d 4g	.	.	.	.	.	.	.	.
8D/L	8GG\L	.	8B-/L 8d 8g	.	.	.	.	.	.	.	.
8F#X/J	8GG\J	.	8B-/J 8d 8g	.	.	.	.	.	.	.	.
4G/	4GG\	.	4B-/ 4d 4g	.	.	4dd\	-bna	.	4b-\	-bna	.
=77	=77	=77	=77	=77	=77	=77	=77	=77	=77	=77	=77
8G/L	8GG\L	.	8c/L 8e- 8g	.	.	2ee-\	przy-	.	2cc\	przy-	.
8F#X/J	8GG\J	.	8c/J 8e- 8g	.	.	.	.	.	.	.	.
4E-/	4GG\	.	4c/ 4e- 4g	.	.	.	.	.	.	.	.
8E-/L	8GG\L	.	8c/L 8e- 8g	.	.	2ee-\	-szłość	.	2cc\	-szłość	.
8D/J	8GG\J	.	8c/J 8e- 8g	.	.	.	.	.	.	.	.
4C/	4GG\	.	4c/ 4e- 4g	.	.	.	.	.	.	.	.
=78	=78	=78	=78	=78	=78	=78	=78	=78	=78	=78	=78
2.D^/	8GG\L	.	8B-/L 8d 8g	.	.	2ee-\	cze-	.	2cc\	cze-	.
.	8GG\J	.	8B-/J 8d 8g	.	.	.	.	.	.	.	.
.	4GG\	.	4B-/ 4d 4g	.	.	.	.	.	.	.	.
.	8GG\L	.	8B-/L 8d 8g	.	.	2dd\	-ka	.	2b-\	-ka	.
.	8GG\J	.	8B-/J 8d 8g	.	.	.	.	.	.	.	.
4r	4GG\	.	4B-/ 4d 4g	.	.	.	.	.	.	.	.
*v	*v	*	*	*	*	*	*	*	*	*	*
=79	=79	=79	=79	=79	=79	=79	=79	=79	=79	=79
8FF#X/L 8AA 8C 8D	.	8a\L 8aa	.	.	1cc	zdra-	.	8a/L	Wie	.
8FF#/J 8AA 8C 8D	.	8b-\J 8bb-	.	.	.	.	.	8b-/J	.	.
4FF#/ 4AA 4C 4D	.	4a\ 4aa	.	.	.	.	.	4a/	że	.
8FF#/L 8AA 8C 8D	.	8cc\L 8ccc	.	.	.	.	.	8cc\L	zgu-	.
8FF#/J 8AA 8C 8D	.	8b-\J 8bb-	.	.	.	.	.	8b-\J	.	.
4FF#/ 4AA 4C 4D	.	4a\ 4aa	.	.	.	.	.	4a/	-bna	.
=80	=80	=80	=80	=80	=80	=80	=80	=80	=80	=80
8GG/L 8BB- 8D	.	8b-\L 8bb-	.	.	2b-\	.	.	8b-/L	przy-	.
8GG/J 8BB- 8D	.	8a\J 8aa	.	.	.	.	.	8a/J	.	.
4GG/ 4BB- 4D	.	4g\ 4gg	.	.	.	.	.	4g/	-szłość	.
8C\L 8E- 8A	.	8e-\L 8ee-	.	.	2cc\	-dny	.	8e-/L	cze-	.
8C\J 8E- 8A	.	8b-\J 8bb-	.	.	.	.	.	8b-/J	.	.
4C\ 4E- 4A	.	4a\ 4aa	.	.	.	.	.	4a/	-ka	.
!!LO:LB:g=original	!	!	!	!	!	!	!	!	!
=81	=81	=81	=81	=81	=81	=81	=81	=81	=81	=81
8D\L 8G 8B-	.	8d\L 8dd	.	.	2b-\	gro-	.	8d/L	zdra-	.
8D\J 8G 8B-	.	8a\J 8aa	.	.	.	.	.	8a/J	.	.
4D\ 4G 4B-	.	4g\ 4gg	.	.	.	.	.	4g/	-dny	.
8D\L 8A 8c	.	8d\L 8dd	.	.	2dd\	-zi	.	8d/L	gro-	.
8D\J 8A 8c	.	8g\J 8gg	.	.	.	.	.	8g/J	.	.
4D\ 4A 4c	.	4f#X\ 4ff#X	.	.	.	.	.	4f#X/	-zi	.
=82	=82	=82	=82	=82	=82	=82	=82	=82	=82	=82
!	!	!	!	!	!	!	!	!	!	!LO:DY:a
8C#X\L 8G 8B-	.	1een 1eeen	.	fz >	1gg	cios!	.	1een	cios!	f
8C#\J 8G 8B-	.	.	.	.	.	.	.	.	.	.
4C#\ 4G 4B-	.	.	.	]	.	.	.	.	.	.
8C#\L 8G 8B-	.	.	.	.	.	.	.	.	.	.
8C#\J 8G 8B-	.	.	.	.	.	.	.	.	.	.
4C#\ 4G 4B-	.	.	.	.	.	.	.	.	.	.
=83	=83	=83	=83	=83	=83	=83	=83	=83	=83	=83
8Cn\L 8F#X 8A	.	1ee-X^< 1eee-X	.	p	1ff#X^	ach!	.	1ee-X^	ach!	.
8C\J 8F# 8A	.	.	.	.	.	.	.	.	.	.
4C\ 4F# 4A	.	.	.	.	.	.	.	.	.	.
8C\L 8F# 8A	.	.	.	.	.	.	.	.	.	.
8C\J 8F# 8A	.	.	.	.	.	.	.	.	.	.
4C\ 4F# 4A	.	.	.	.	.	.	.	.	.	.
=84	=84	=84	=84	=84	=84	=84	=84	=84	=84	=84
!	!	!	!	!	!	!	!LO:DY:a	!	!	!
8BB-\L 8D 8G	.	8dd\L 8ddd	.	p	2gg\	zdra-	p	(8dd\L	zdra-	.
8BB-\J 8D 8G	.	8ee-\J 8eee-	.	.	.	.	.	8ee-\J	.	.
4BB-\ 4D 4G	.	4dd\ 4ddd	.	.	.	.	.	4dd\)	.	.
8BB-\L 8D 8G	.	8cc\L 8ccc	.	.	2ee-\	-dny	.	(8cc\L	-dny	.
8BB-\J 8D 8G	.	8dd\J 8ddd	.	.	.	.	.	8dd\J	.	.
4BB-\ 4D 4G	.	4cc\ 4ccc	.	.	.	.	.	4cc\)	.	.
=85	=85	=85	=85	=85	=85	=85	=85	=85	=85	=85
8D\L 8G 8B-	.	8b-\L 8bb-	.	.	2dd\	gro-	.	(8b-\L	gro-	.
8D\J 8G 8B-	.	8cc\J 8ccc	.	.	.	.	.	8cc\J	.	.
4D\ 4G 4B-	.	4b-\ 4bb-	.	.	.	.	.	4b-\)	.	.
8D\L 8F#X 8c	.	8a\L 8aa	.	.	2cc\	-zi	.	(8a/L	-zi	.
8D\J 8F# 8c	.	8b-\J 8bb-	.	.	.	.	.	8b-/J	.	.
4D\ 4F# 4c	.	4a\ 4aa	.	.	.	.	.	4a/)	.	.
!!LO:PB:g=original	!	!	!	!	!	!	!	!	!
=86	=86	=86	=86	=86	=86	=86	=86	=86	=86	=86
!	!	!	!	!	!	!	!	!	!	!LO:DY:a
8C#X\L 8G 8B-	.	1een 1eeen	.	fz > ]]	1b-^	cios!	.	1een	cios!	f
8C#\J 8G 8B-	.	.	.	.	.	.	.	.	.	.
4C#\ 4G 4B-	.	.	.	.	.	.	.	.	.	.
8C#\L 8G 8B-	.	.	.	.	.	.	.	.	.	.
8C#\J 8G 8B-	.	.	.	.	.	.	.	.	.	.
4C#\ 4G 4B-	.	.	.	.	.	.	.	.	.	.
=87	=87	=87	=87	=87	=87	=87	=87	=87	=87	=87
!	!	!	!	!	!	!	!LO:DY:a	!	!	!
8D\L 8G 8B-	.	2dd\ 2ddd	.	p	2b-\	zdra-	p	2dd\	zdra-	.
8D\J 8G 8B-	.	.	.	.	.	.	.	.	.	.
4D\ 4G 4B-	.	.	.	.	.	.	.	.	.	.
8D\L 8G 8d	.	2b-\ 2bb-	.	.	2dd\	-dny	.	2b-\	-dny	.
8D\J 8G 8d	.	.	.	.	.	.	.	.	.	.
4D\ 4G 4d	.	.	.	.	.	.	.	.	.	.
=88	=88	=88	=88	=88	=88	=88	=88	=88	=88	=88
8D\L 8G 8c	.	2a\ 2aa	.	.	2cc\	gro-	.	2a/	gro-	.
8D\J 8G 8c	.	.	.	.	.	.	.	.	.	.
4D\ 4G 4c	.	.	.	.	.	.	.	.	.	.
8D\L 8F#X 8c	.	4.b-^<\ 4.bb-	.	.	4.dd\	.	.	4.b-\	.	.
8D\J 8F# 8c	.	.	.	.	.	.	.	.	.	.
4D\ 4F# 4c	.	.	.	.	.	.	.	.	.	.
.	.	8a\ 8aa	.	.	8cc\	-zi	.	8a/	-zi	.
*kcancel	*	*kcancel	*	*	*kcancel	*	*	*kcancel	*	*
=89||	=89||	=89||	=89||	=89||	=89||	=89||	=89||	=89||	=89||	=89||
*k[f#]	*	*k[f#]	*	*	*k[f#]	*	*	*k[f#]	*	*
8G\ 8B	.	8g\ 8gg	.	p	4b\	cios	.	4g/	cios	.
8D/L	.	8d/L	.	.	.	.	.	.	.	.
8BB/	.	8B/	.	.	4r	.	.	4r	.	.
8GG/J	.	8G/J	.	.	.	.	.	.	.	.
*	*	*clefF4	*	*	*	*	*	*	*	*
8FF#/L	.	8F#\L	.	.	4.dd\	Wiem	.	2r	.	.
8AA/	.	8A\	.	.	.	.	.	.	.	.
8FF#/	.	8F#\	.	.	.	.	.	.	.	.
8DD/J	.	8D\J	.	.	8dd\	że	.	.	.	.
=90	=90	=90	=90	=90	=90	=90	=90	=90	=90	=90
8GG/L	.	8G\L	.	.	4b\	zgu-	.	2r	.	.
8D/	.	8d\	.	.	.	.	.	.	.	.
8BB/	.	8B\	.	.	4g/	-bna	.	.	.	.
8GG/J	.	8G\J	.	.	.	.	.	.	.	.
8FF#/L	.	8F#\L	.	.	4f#/	przy-	.	4.dd\	Wie	.
8AA/	.	8A\	.	.	.	.	.	.	.	.
8FF#/	.	8F#\	.	.	4d/	-szłość	.	.	.	.
8DD/J	.	8D\J	.	.	.	.	.	8dd\	że	.
!!LO:LB:g=original	!	!	!	!	!	!	!	!	!
=91	=91	=91	=91	=91	=91	=91	=91	=91	=91	=91
!	!	!LO:TX:b:t=poco cres-:ext=cd:problem:text with extention lines	!	!	!	!	!	!	!	!
8GG/L	.	8G\L	.	<	4g/	cze-	.	4b\	zgu-	.
8D/	.	8d\	.	.	.	.	.	.	.	.
8BB/	.	8B\	.	.	4b\	-ka	.	4g/	-bna	.
8GG/J	.	8G\J	.	.	.	.	.	.	.	.
8GG#X/L	.	8G#X\L	.	.	4.ee\	zda-	.	4g#X/	przy-	.
8BB/	.	8B\	.	.	.	.	.	.	.	.
8GG#/	.	8G#\	.	.	.	.	.	4e/	-szłość	.
8EE/J	.	8E\J	.	.	8ee\	-dny	.	.	.	.
=92	=92	=92	=92	=92	=92	=92	=92	=92	=92	=92
8AA/L	.	8A\L	.	.	4cc\	zdra-	.	4a/	cze-	.
8E/	.	8e\	.	.	.	.	.	.	.	.
8C/	.	8c\	.	.	4a/	-dny	.	4a/	-ka	.
8AA/J	.	8A\J	.	.	.	.	.	.	.	.
8GG#X/L	.	8G#X\L	.	.	4g#X/	gro-	.	4.ee\	zdra-	.
8BB/	.	8B\	.	.	.	.	.	.	.	.
8GG#/	.	8G#\	.	.	4e/	-zi	.	.	.	.
8EE/J	.	8E\J	.	.	.	.	.	8ee\	-dny	.
=93	=93	=93	=93	=93	=93	=93	=93	=93	=93	=93
8AA/L	.	8A\L	.	.	4a/	cios!	.	4cc\	zdra-	.
8E/	.	8e\	.	.	.	.	.	.	.	.
8C/	.	8c\	.	.	4r	.	.	4a/	-dny	.
8AA/J	.	8A\J	.	.	.	.	.	.	.	.
8BB/L	.	8B\L	.	.	4.gg\	Że	.	4b\	gro-	.
8D/	.	8d\	.	.	.	.	.	.	.	.
8BB/	.	8B\	.	.	.	.	.	4gn/	-zi	.
8GGn/J	.	8Gn\J	.	.	8gg\	ta	.	.	.	.
*	*	*clefG2	*	*	*	*	*	*	*	*
=94	=94	=94	=94	=94	=94	=94	=94	=94	=94	=94
8C/L	.	8c/L	.	.	4ee\	chwi-	.	4cc\	cios!	.
8G/	.	8g/	.	.	.	.	.	.	.	.
8E/	.	8e/	.	.	4cc\	-la	.	4r	.	.
8C/J	.	8c/J	.	.	.	.	.	.	.	.
8BB/L	.	8B/L	.	.	4b\	nie-	.	4.gg\	choć	.
8D/	.	8d/	.	.	.	.	.	.	.	.
8BB/	.	8B/	.	.	4g/	-da-	.	.	.	.
8GG/J	.	8G/J	.	[[	.	.	.	8gg\	ta	.
!!LO:LB:g=original	!	!	!	!	!	!	!	!	!
=95	=95	=95	=95	=95	=95	=95	=95	=95	=95	=95
4C/	.	8c/L	.	f	4cc\	-le-	.	4ee^\	chwi-	.
.	.	8c/	.	.	.	.	.	.	.	.
4C\ 4E 4G	.	8e/	.	.	4cc\	-ka	.	4cc^\	-la	.
.	.	8c/J	.	.	.	.	.	.	.	.
4C\ 4E 4G	.	8g/L	.	.	2r	.	.	4g^>/	nie-	.
.	.	8e/	.	.	.	.	.	.	.	.
4C\ 4E 4G	.	8cc/	.	.	.	.	.	4e^>/	-da-	.
.	.	8g/J	.	.	.	.	.	.	.	.
=96	=96	=96	=96	=96	=96	=96	=96	=96	=96	=96
*tremolo	*	*	*	*	*	*	*	*	*	*
8C\L 8E 8G	.	8cc\L	.	.	1r	.	.	4c/ 4cc	-le-	.
8C\ 8E 8G	.	8g\	.	.	.	.	.	.	.	.
8C\ 8E 8G	.	8ee\	.	.	.	.	.	4c/ 4cc	-ka	.
8C\J 8E 8G	.	8cc\J	.	.	.	.	.	.	.	.
8C\L 8E 8G	.	8gg\L	.	.	.	.	.	2r	.	.
8C\ 8E 8G	.	8ee\	.	.	.	.	.	.	.	.
8C\ 8E 8G	.	8ccc\	.	.	.	.	.	.	.	.
8C\J 8E 8G	.	8gg\J	.	.	.	.	.	.	.	.
=97	=97	=97	=97	=97	=97	=97	=97	=97	=97	=97
!	!	!	!	!	!	!	!	!	!	!LO:DY:b
*	*	*tremolo	*	*	*	*	*	*	*	*
8CC/L 8C	.	16gg\LL 16eee	.	<	2ee\	Lecz	.	2ee\	Je-	f
.	.	16ee\	.	.	.	.	.	.	.	.
8CC/ 8C	.	16gg\ 16eee	.	.	.	.	.	.	.	.
.	.	16ee\	.	.	.	.	.	.	.	.
8CC/ 8C	.	16gg\ 16eee	.	.	.	.	.	.	.	.
.	.	16ee\	.	.	.	.	.	.	.	.
8CC/J 8C	.	16gg\ 16eee	.	.	.	.	.	.	.	.
.	.	16ee\JJ	.	.	.	.	.	.	.	.
!	!	!	!	!	!	!	!	!	!	!LO:HP:b
8CC/L 8C	.	16gg#X\LL 16eee	.	.	2ee\	swój	.	2ee\	-dnak	<
.	.	16ee\	.	.	.	.	.	.	.	.
8CC/ 8C	.	16gg#\ 16eee	.	.	.	.	.	.	.	.
.	.	16ee\	.	.	.	.	.	.	.	.
8CC/ 8C	.	16gg#\ 16eee	.	.	.	.	.	.	.	.
.	.	16ee\	.	.	.	.	.	.	.	.
8CC/J 8C	.	16gg#\ 16eee	.	.	.	.	.	.	.	.
.	.	16ee\JJ	.	.	.	.	.	.	.	.
=98	=98	=98	=98	=98	=98	=98	=98	=98	=98	=98
8CC/L 8C	.	16aa\LL 16eee	.	.	2ee\	wiel-	.	2ee\	wiel-	[[
.	.	16ee\	.	.	.	.	.	.	.	.
8CC/ 8C	.	16aa\ 16eee	.	.	.	.	.	.	.	.
.	.	16ee\	.	.	.	.	.	.	.	.
8CC/ 8C	.	16aa\ 16eee	.	.	.	.	.	.	.	.
.	.	16ee\	.	.	.	.	.	.	.	.
8CC/J 8C	.	16aa\ 16eee	.	.	.	.	.	.	.	.
.	.	16ee\JJ	.	.	.	.	.	.	.	.
8CC/L 8C	.	16aa#X\LL 16eee	.	.	2ee\	-bię	.	2a#X/	-bi	.
.	.	16ee\	.	.	.	.	.	.	.	.
8CC/ 8C	.	16aa#\ 16eee	.	.	.	.	.	.	.	.
.	.	16ee\	.	.	.	.	.	.	.	.
8CC/ 8C	.	16aa#\ 16eee	.	.	.	.	.	.	.	.
.	.	16ee\	.	.	.	.	.	.	.	.
8CC/J 8C	.	16aa#\ 16eee	.	.	.	.	.	.	.	.
.	.	16ee\JJ	.	[[	.	.	.	.	.	.
=99	=99	=99	=99	=99	=99	=99	=99	=99	=99	=99
8BBB/L 8BB	.	16bb\LL 16ddd#X	.	ff	4dd#X\	los	.	4b\	los	.
.	.	16ff#\	.	.	.	.	.	.	.	.
8DD#X/J 8D#X	.	16bb\ 16ddd#	.	.	.	.	.	.	.	.
.	.	16ff#\	.	.	.	.	.	.	.	.
4FF#/ 4F#	.	16bb\ 16ddd#	.	.	4r	.	.	4r	.	.
.	.	16ff#\	.	.	.	.	.	.	.	.
.	.	16bb\ 16ddd#	.	.	.	.	.	.	.	.
.	.	16ff#\JJ	.	.	.	.	.	.	.	.
8BBB/L 8BB	.	16bb\LL 16ddd#	.	.	4ff#\	lecz	.	4dd#X\	Je-	.
.	.	16ff#\	.	.	.	.	.	.	.	.
8DD#/J 8D#	.	16bb\ 16ddd#	.	.	.	.	.	.	.	.
.	.	16ff#\	.	.	.	.	.	.	.	.
4FF#/ 4F#	.	16bb\ 16ddd#	.	.	4ff#\	swój	.	4dd#\	-dnak	.
.	.	16ff#\	.	.	.	.	.	.	.	.
.	.	16bb\ 16ddd#	.	.	.	.	.	.	.	.
.	.	16ff#\JJ	.	.	.	.	.	.	.	.
=100	=100	=100	=100	=100	=100	=100	=100	=100	=100	=100
*	*	*8va	*	*	*	*	*	*	*	*
8BBB/L 8BB	.	16bb\LL 16eee	.	.	2gg\	wiel-	.	2ee\	wiel-	.
.	.	16gg\	.	.	.	.	.	.	.	.
8EE/J 8E	.	16bb\ 16eee	.	.	.	.	.	.	.	.
.	.	16gg\	.	.	.	.	.	.	.	.
4GG/ 4G	.	16bb\ 16eee	.	.	.	.	.	.	.	.
.	.	16gg\	.	.	.	.	.	.	.	.
.	.	16bb\ 16eee	.	.	.	.	.	.	.	.
.	.	16gg\JJ	.	.	.	.	.	.	.	.
8BBB/L 8BB	.	16bb\LL 16eee	.	.	2gg\	-bię	.	2ee\	-bi	.
.	.	16gg\	.	.	.	.	.	.	.	.
8EE/J 8E	.	16bb\ 16eee	.	.	.	.	.	.	.	.
.	.	16gg\	.	.	.	.	.	.	.	.
4GG/ 4G	.	16bb\ 16eee	.	.	.	.	.	.	.	.
.	.	16gg\	.	.	.	.	.	.	.	.
.	.	16bb\ 16eee	.	.	.	.	.	.	.	.
.	.	16gg\JJ	.	.	.	.	.	.	.	.
!!LO:LB:g=original	!	!	!	!	!	!	!	!	!
=101	=101	=101	=101	=101	=101	=101	=101	=101	=101	=101
8BBB/L 8BB	.	16bb/LL 16ddd#X	.	.	4ff#\	los	.	4dd#X\	los	.
.	.	16ff#/	.	.	.	.	.	.	.	.
8DD#X/J 8D#X	.	16bb/ 16ddd#	.	.	.	.	.	.	.	.
.	.	16ff#/	.	.	.	.	.	.	.	.
4FF#/ 4F#	.	16bb/ 16ddd#	.	.	4r	.	.	4r	.	.
.	.	16ff#/	.	.	.	.	.	.	.	.
.	.	16bb/ 16ddd#	.	.	.	.	.	.	.	.
.	.	16ff#/JJ	.	.	.	.	.	.	.	.
8BBB/L 8BB	.	16bb/LL 16ddd#	.	.	4ff#\	Lecz	.	4dd#\	Je-	.
.	.	16ff#/	.	.	.	.	.	.	.	.
8DD#/J 8D#	.	16bb/ 16ddd#	.	.	.	.	.	.	.	.
.	.	16ff#/	.	.	.	.	.	.	.	.
4FF#/ 4F#	.	16bb/ 16ddd#	.	.	4ff#\	swój	.	4dd#\	-dnak	.
.	.	16ff#/	.	.	.	.	.	.	.	.
.	.	16bb/ 16ddd#	.	.	.	.	.	.	.	.
.	.	16ff#/JJ	.	.	.	.	.	.	.	.
=102	=102	=102	=102	=102	=102	=102	=102	=102	=102	=102
8BBB/L 8BB	.	16bb\LL 16eee	.	.	2gg\	wiel-	.	2ee\	wiel-	.
.	.	16gg\	.	.	.	.	.	.	.	.
8EE/J 8E	.	16bb\ 16eee	.	.	.	.	.	.	.	.
.	.	16gg\	.	.	.	.	.	.	.	.
4GG/ 4G	.	16bb\ 16eee	.	.	.	.	.	.	.	.
.	.	16gg\	.	.	.	.	.	.	.	.
.	.	16bb\ 16eee	.	.	.	.	.	.	.	.
.	.	16gg\JJ	.	.	.	.	.	.	.	.
8BBB/L 8BB	.	16bb\LL 16eee	.	.	2gg\	-bię	.	2ee\	-bi	.
.	.	16gg\	.	.	.	.	.	.	.	.
8EE/J 8E	.	16bb\ 16eee	.	.	.	.	.	.	.	.
.	.	16gg\	.	.	.	.	.	.	.	.
4GG/ 4G	.	16bb\ 16eee	.	.	.	.	.	.	.	.
.	.	16gg\	.	.	.	.	.	.	.	.
.	.	16bb\ 16eee	.	.	.	.	.	.	.	.
.	.	16gg\JJ	.	.	.	.	.	.	.	.
=103	=103	=103	=103	=103	=103	=103	=103	=103	=103	=103
4BBB/ 4BB	.	8bb\L 8ddd#X	.	.	4ff#\	los	.	4dd#X\	los	.
.	.	8aa#X\	.	.	.	.	.	.	.	.
4r	.	8bb\	.	.	4r	.	.	4r	.	.
.	.	8aa#\J	.	.	.	.	.	.	.	.
*clefG2	*	*	*	*	*	*	*	*	*	*
8r	.	4bb\	.	.	2r	.	.	2r	.	.
*Xtremolo	*	*	*	*	*	*	*	*	*	*
8a#X'/L	.	.	.	.	.	.	.	.	.	.
*	*	*X8va	*	*	*	*	*	*	*	*
8b'/	.	4r	.	.	.	.	.	.	.	.
8a#'/J	.	.	.	.	.	.	.	.	.	.
=104	=104	=104	=104	=104	=104	=104	=104	=104	=104	=104
4b'\	.	8r	.	.	1r	.	.	1r	.	.
*	*	*Xtremolo	*	*	*	*	*	*	*	*
.	.	8A#X'/L	.	.	.	.	.	.	.	.
4r	.	8B'/	.	.	.	.	.	.	.	.
.	.	8A#'/J	.	.	.	.	.	.	.	.
*clefF4	*	*	*	*	*	*	*	*	*	*
8r	.	4B'/	.	.	.	.	.	.	.	.
8AA#X'/L	.	.	.	.	.	.	.	.	.	.
8BB'/	.	4r	.	.	.	.	.	.	.	.
8AA#'/J	.	.	.	.	.	.	.	.	.	.
=105	=105	=105	=105	=105	=105	=105	=105	=105	=105	=105
8BBB/L 8BB	.	8B/L	.	ff	1r	.	.	1r	.	.
8DD#X/J 8D#X	.	8d#X/J	.	.	.	.	.	.	.	.
4FF#/ 4F#	.	4f#/	.	.	.	.	.	.	.	.
2r	.	2r	.	.	.	.	.	.	.	.
=106	=106	=106	=106	=106	=106	=106	=106	=106	=106	=106
!	!	!	!	!	!	!	!	!LO:TX:i:a:t=dol.	!	!
!	!	!	!	!	!	!	!	!	!	!LO:DY:b
1F#	.	(2.ff#\ 2.ddd#X	.	p	(2.ff#\	Lecz	.	(2.dd#X\	Je-	p
.	.	4ee\ 4ccc#X	.	.	4ee\)	.	.	4cc#X\)	.	.
!!LO:PB:g=original	!	!	!	!	!	!	!	!	!
=107	=107	=107	=107	=107	=107	=107	=107	=107	=107	=107
8BBB/L 8BB	.	4dd#X\) 4bb	.	f	4dd#X\	swój	.	4b\	-dnak	.
8DD#X/J 8D#X	.	.	.	.	.	.	.	.	.	.
4FF#/ 4F#	.	4r	.	.	4r	.	.	4r	.	.
2r	.	8B/L 8b	.	.	2r	.	.	2r	.	.
.	.	8d#X/J 8dd#X	.	.	.	.	.	.	.	.
.	.	4f#\ 4ff#	.	.	.	.	.	.	.	.
=108	=108	=108	=108	=108	=108	=108	=108	=108	=108	=108
1F#	.	(2.ff#\ 2.ddd#X	.	p	2.ff#\	wiel-	.	2.dd#X\	wiel-	.
.	.	4ee\ 4ccc#X	.	.	4ee\	-bię	.	4cc#X\	-bi	.
=109	=109	=109	=109	=109	=109	=109	=109	=109	=109	=109
8BB/L	.	4dd#X\) 4bb	.	.	4dd#X\	los.	.	4b\	los.	.
8AA#X/	.	.	.	.	.	.	.	.	.	.
8BB/	.	4r	.	.	4r	.	.	4r	.	.
8AA#/J	.	.	.	.	.	.	.	.	.	.
4BB/	.	8r	.	.	2r	.	.	2r	.	.
.	.	8A#X/L	.	<	.	.	.	.	.	.
4r	.	8B/	.	.	.	.	.	.	.	.
.	.	8A#/J	.	.	.	.	.	.	.	.
*clefG2	*	*	*	*	*	*	*	*	*	*
=110	=110	=110	=110	=110	=110	=110	=110	=110	=110	=110
8r	.	4B/	.	.	1r	.	.	1r	.	.
8a#X\L	.	.	.	.	.	.	.	.	.	.
8b\	.	4r	.	.	.	.	.	.	.	.
8a#\J	.	.	.	.	.	.	.	.	.	.
4b\	.	8r	.	[	.	.	.	.	.	.
.	.	8bb\L	.	.	.	.	.	.	.	.
4r	.	8ccc\	.	.	.	.	.	.	.	.
.	.	8ccc#X\J	.	.	.	.	.	.	.	.
*clefF4	*	*	*	*	*	*	*	*	*	*
=111	=111	=111	=111	=111	=111	=111	=111	=111	=111	=111
!	!	!	!	!	!	!	!	!	!	!LO:DY:a
*tremolo	*	*	*	*	*	*	*	*	*	*
16D\LL 16F#X 16A	.	[2ddd\	.	f	[1ff#	ach!	.	[1ddn	ach!	f
16c\	.	.	.	.	.	.	.	.	.	.
16D\ 16F# 16A	.	.	.	.	.	.	.	.	.	.
16c\	.	.	.	.	.	.	.	.	.	.
16D\ 16F# 16A	.	.	.	.	.	.	.	.	.	.
16c\	.	.	.	.	.	.	.	.	.	.
16D\ 16F# 16A	.	.	.	.	.	.	.	.	.	.
16c\JJ	.	.	.	.	.	.	.	.	.	.
4d\ 4f# 4a	.	8ddd\L]	.	.	.	.	.	.	.	.
.	.	8ccc\	.	.	.	.	.	.	.	.
4r	.	8aa\	.	.	.	.	.	.	.	.
.	.	8ff#\J	.	.	.	.	.	.	.	.
!!LO:LB:g=original	!	!	!	!	!	!	!	!	!
=112	=112	=112	=112	=112	=112	=112	=112	=112	=112	=112
*>A1	*	*>A1	*	*	*>A1	*	*	*>A1	*	*
2r	.	8dd/L	.	.	4ff#\]	.	.	4dd\]	.	.
.	.	8cc/	.	.	.	.	.	.	.	.
!	!	!	!	!	!	!	!	!LO:TX:a:i:t=prima volta	!	!
.	.	8a/	.	.	4r	.	.	4r	.	.
.	.	8f#/J	.	.	.	.	.	.	.	.
8r	.	4d/	.	.	2r	.	.	2r	.	.
8C\L 8c	.	.	.	.	.	.	.	.	.	.
8AA\ 8A	.	4r	.	.	.	.	.	.	.	.
8FF#\J 8F#	.	.	.	.	.	.	.	.	.	.
=113	=113	=113	=113	=113	=113	=113	=113	=113	=113	=113
!	!	!LO:TX:a:t=Flau.	!	!	!	!	!	!	!	!
4DD/ 4D	.	8ccc\L	.	f	1r	.	.	1r	.	.
.	.	8bb-X\J	.	.	.	.	.	.	.	.
4r	.	[4aa^<\	.	.	.	.	.	.	.	.
*clefG2	*	*	*	*	*	*	*	*	*	*
8a/L	.	8aa\L]	.	p	.	.	.	.	.	.
8g/J	.	8gg\J	.	.	.	.	.	.	.	.
[4f#X^>/	.	[4ff#X^<\	.	.	.	.	.	.	.	.
=114	=114	=114	=114	=114	=114	=114	=114	=114	=114	=114
*Xtremolo	*	*	*	*	*	*	*	*	*	*
(8f#/L]	.	8ff#\L]	.	>	1r	.	.	1r	.	.
8e-X/	.	(8ee-X\	.	.	.	.	.	.	.	.
8d/	.	8dd\	.	.	.	.	.	.	.	.
8e-/J	.	8ee-\J	.	.	.	.	.	.	.	.
*clefF4	*	*	*	*	*	*	*	*	*	*
8d\L	.	8dd\L	.	]	.	.	.	.	.	.
8c\	.	8cc\	.	.	.	.	.	.	.	.
8A\	.	8a\	.	.	.	.	.	.	.	.
8B-X\J)	.	8b-X\J)	.	.	.	.	.	.	.	.
=115||	=115||	=115||	=115||	=115||	=115||	=115||	=115||	=115||	=115||	=115||
*k[b-e-]	*	*k[b-e-]	*	*	*k[b-e-]	*	*	*k[b-e-]	*	*
8G\L	.	4g/	.	p	1r	.	.	8g/L	Mi-	.
8GG\J 8BB- 8D 8G	.	.	.	.	.	.	.	8a/J	.	.
4GG/ 4BB- 4D 4G	.	4r	.	.	.	.	.	4b-\	-mo	.
8GG/L 8BB- 8D 8G	.	2r	.	.	.	.	.	8b-\L	bu-	.
8GG/J 8BB- 8D 8G	.	.	.	.	.	.	.	8cc\J	.	.
4GG/ 4BB- 4D 4G	.	.	.	.	.	.	.	4dd\	-rzę	.
=116:|!	=116:|!	=116:|!	=116:|!	=116:|!	=116:|!	=116:|!	=116:|!	=116:|!	=116:|!	=116:|!
*>A2	*	*>A2	*	*	*>A2	*	*	*>A2	*	*
*k[f#]	*	*k[f#]	*	*	*k[f#]	*	*	*k[f#]	*	*
!	!	!	!	!	!	!	!	!LO:TX:a:i:t=2da volta	!	!
1r	.	8dd/L	.	.	4ff#\	.	.	4dd\	.	.
.	.	8cc/	.	>	.	.	.	.	.	.
.	.	8a/	.	.	4r	.	.	4r	.	.
.	.	8f#/J	.	.	.	.	.	.	.	.
.	.	8d/L	.	.	2r	.	.	2r	.	.
.	.	8f#/	.	.	.	.	.	.	.	.
.	.	8a/	.	.	.	.	.	.	.	.
.	.	8cc/J	.	]]	.	.	.	.	.	.
=117	=117	=117	=117	=117	=117	=117	=117	=117	=117	=117
*>B	*	*>B	*	*	*>B	*	*	*>B	*	*
!	!	!	!	!	!LO:TX:i:a:t=dol	!	!LO:DY:a	!	!	!
4GG/	.	4b\	.	p	2dd\	Je-	p	1r	.	.
!	!	!LO:TX:a:t=Ob.	!	!	!	!	!	!	!	!
4BB\ 4D 4G	.	(8aa\L	.	.	.	.	.	.	.	.
.	.	8gg\J	.	.	.	.	.	.	.	.
4GG/	.	8ff#\L	.	.	2dd#X\	-dnak	.	.	.	.
.	.	8aa\	.	.	.	.	.	.	.	.
4BB-y\ 4D#X 4G	.	8gg\	.	.	.	.	.	.	.	.
.	.	8dd#X\J)	.	.	.	.	.	.	.	.
=118	=118	=118	=118	=118	=118	=118	=118	=118	=118	=118
4C/	.	(8ff#\L	.	.	(8ff#\L	wiel-	.	1r	.	.
.	.	8ee\	.	.	8ee\	.	.	.	.	.
4E\ 4A	.	8ddn\	.	.	8ddn\	.	.	.	.	.
.	.	8cc\J	.	.	8cc\J)	.	.	.	.	.
4C/	.	8b\L	.	.	(8b\L	-bię	.	.	.	.
.	.	8a\	.	.	8a\	.	.	.	.	.
4E\ 4A	.	8cc\	.	.	8cc\	.	.	.	.	.
.	.	8ee\J)	.	.	8ee\J)	.	.	.	.	.
=119	=119	=119	=119	=119	=119	=119	=119	=119	=119	=119
4D\	.	4dd\	.	.	1dd	los.	.	8dd\L	Je-	.
.	.	.	.	.	.	.	.	8gg\	.	.
4r	.	4B/ 4d 4g	.	.	.	.	.	8ff#\	.	.
.	.	.	.	.	.	.	.	8ee\J	.	.
4D\	.	4r	.	.	.	.	.	8dd\L	-dnak	.
.	.	.	.	.	.	.	.	8cc#X\	.	.
4r	.	4B/ 4d 4g	.	.	.	.	.	8ee\	.	.
.	.	.	.	.	.	.	.	8dd\J	.	.
!!LO:LB:g=original	!	!	!	!	!	!	!	!	!
=120	=120	=120	=120	=120	=120	=120	=120	=120	=120	=120
4DD/	.	(8dd\L	.	.	8dd\L	Lecz	.	2dd\	wiel-	.
.	.	8dd#X\	.	.	8dd#X\J	.	.	.	.	.
4D\ 4F# 4c	.	8ff#\	.	.	8ff#\L	swój	.	.	.	.
.	.	8ee\J	.	.	8ee\J	.	.	.	.	.
4DD/	.	8ddn\L	.	.	8ddn\L	wiel-	.	2f#/	-bi	.
.	.	8cc#X\	.	.	8cc#X\J	.	.	.	.	.
4D\ 4F# 4c	.	8ccn\	.	.	8ccn\L	-bię	.	.	.	.
.	.	8a\J)	.	.	8a\J	.	.	.	.	.
=121	=121	=121	=121	=121	=121	=121	=121	=121	=121	=121
8G\L 8B	.	8g/L	.	p	4g/	los	.	4g/	los	.
8D\J	.	8d/J	.	.	.	.	.	.	.	.
8BB\L	.	8B</L	.	.	4r	.	.	4r	.	.
8GG\J	.	8G</J	.	.	.	.	.	.	.	.
8FF#\L	.	8F#</L	.	.	4.dd\	Wiem	.	2r	.	.
8AA\	.	8A</	.	.	.	.	.	.	.	.
8FF#\	.	8F#</	.	.	.	.	.	.	.	.
8DD\J	.	8D</J	.	.	8dd\	że	.	.	.	.
=122	=122	=122	=122	=122	=122	=122	=122	=122	=122	=122
8GG\L	.	8G</L	.	.	4b\	zgu-	.	2r	.	.
8D\	.	8d</	.	.	.	.	.	.	.	.
8BB\	.	8B</	.	.	4g/	-bna	.	.	.	.
8GG\J	.	8G</J	.	.	.	.	.	.	.	.
8FF#\L	.	8F#</L	.	.	4f#/	przy-	.	4.dd\	Wie	.
8AA\	.	8A</	.	.	.	.	.	.	.	.
8FF#\	.	8F#</	.	.	4d/	-szłość	.	.	.	.
8DD\J	.	8D</J	.	.	.	.	.	8dd\	że	.
=123	=123	=123	=123	=123	=123	=123	=123	=123	=123	=123
!	!	!LO:TX:b:t=poco cres-:ext=cd:problem:text with extention lines	!	!	!	!	!	!	!	!
8GG\L	.	8G</L	.	<	4g/	cze-	.	4b\	zgu-	.
8D\	.	8d</	.	.	.	.	.	.	.	.
8BB\	.	8B</	.	.	4b\	-ka	.	4g/	-bna	.
8GG\J	.	8G</J	.	.	.	.	.	.	.	.
8GG#X\L	.	8G#X</L	.	.	4.ee\	zdra-	.	4g#X/	przy-	.
8BB\	.	8B</	.	.	.	.	.	.	.	.
8GG#\	.	8G#</	.	.	.	.	.	4e/	-szłość	.
8EE\J	.	8E</J	.	.	8ee\	-dny	.	.	.	.
!!LO:PB:g=original	!	!	!	!	!	!	!	!	!
=124	=124	=124	=124	=124	=124	=124	=124	=124	=124	=124
8AA\L	.	8A</L	.	.	4cc\	zdra-	.	4a/	cze-	.
8E\	.	8e</	.	.	.	.	.	.	.	.
8C\	.	8c</	.	.	4a/	-dny	.	4a/	-ka	.
8AA\J	.	8A</J	.	.	.	.	.	.	.	.
8GG#X\L	.	8G#X</L	.	.	4g#X/	gro-	.	4.ee\	zdra-	.
8BB\	.	8B</	.	.	.	.	.	.	.	.
8GG#\	.	8G#</	.	.	4e/	-zi	.	.	.	.
8EE\J	.	8E</J	.	.	.	.	.	8ee\	-dny	.
=125	=125	=125	=125	=125	=125	=125	=125	=125	=125	=125
8AA\L	.	8A</L	.	.	4a/	cios	.	4cc\	zdra-	.
8E\	.	8e</	.	.	.	.	.	.	.	.
8C\	.	8c</	.	.	4r	.	.	4a/	-dny	.
8AA\J	.	8A</J	.	.	.	.	.	.	.	.
8BB\L	.	8B</L	.	.	4.gg\	Że	.	4b\	gro-	.
8D\	.	8d</	.	.	.	.	.	.	.	.
8BB\	.	8B</	.	.	.	.	.	4gn/	-zi	.
8GG\J	.	8G</J	.	.	8gg\	ta	.	.	.	.
=126	=126	=126	=126	=126	=126	=126	=126	=126	=126	=126
8C\L	.	8c/L	.	.	4ee\	chwi-	.	4cc\	cios	.
8G\	.	8g/	.	.	.	.	.	.	.	.
8E\	.	8e/	.	.	4cc\	-la	.	4r	.	.
8C\J	.	8c/J	.	.	.	.	.	.	.	.
8BB/L	.	8B/L	.	.	4b\	nie-	.	4.gg\	Choć	.
8D/	.	8d/	.	.	.	.	.	.	.	.
8BB/	.	8B/	.	.	4g/	-da-	.	.	.	.
8GG/J	.	8G/J	.	[[	.	.	.	8gg\	to	.
=127	=127	=127	=127	=127	=127	=127	=127	=127	=127	=127
!	!	!	!	!	!	!	!	!	!	!LO:DY:a
4C/	.	8c/L	.	f	4cc\	-le-	.	4ee\	chwi-	f
.	.	8c/	.	.	.	.	.	.	.	.
4C\ 4E 4G	.	8e/	.	.	4cc\	-ka	.	4cc\	-la	.
.	.	8c/J	.	.	.	.	.	.	.	.
4C\ 4E 4G	.	8g/L	.	.	2r	.	.	4g/	nie-	.
.	.	8e/	.	.	.	.	.	.	.	.
4C\ 4E 4G	.	8cc/	.	.	.	.	.	4e/	-da-	.
.	.	8g/J	.	.	.	.	.	.	.	.
!!LO:LB:g=original	!	!	!	!	!	!	!	!	!
=128	=128	=128	=128	=128	=128	=128	=128	=128	=128	=128
!	!	!	!	!	!	!	!	!LO:TX:i:a:t=vel	!	!
*tremolo	*	*	*	*	*	*	*	*	*	*
8C\L 8E 8G	.	8cc\L	.	.	1r	.	.	4c/ 4cc	-le-	.
8C\ 8E 8G	.	8g\	.	.	.	.	.	.	.	.
8C\ 8E 8G	.	8ee\	.	.	.	.	.	4c/ 4cc	-ka	.
8C\J 8E 8G	.	8cc\J	.	.	.	.	.	.	.	.
8C\L 8E 8G	.	8gg\L	.	.	.	.	.	2r	.	.
8C\ 8E 8G	.	8ee\	.	.	.	.	.	.	.	.
8C\ 8E 8G	.	8ccc\	.	.	.	.	.	.	.	.
8C\J 8E 8G	.	8gg\J	.	.	.	.	.	.	.	.
=129	=129	=129	=129	=129	=129	=129	=129	=129	=129	=129
*	*	*tremolo	*	*	*	*	*	*	*	*
8CC/L 8C	.	16gg\LL 16eee	.	.	2ee\	Lecz	.	2ee\	Je-	.
.	.	16ee\	.	.	.	.	.	.	.	.
8CC/ 8C	.	16gg\ 16eee	.	.	.	.	.	.	.	.
.	.	16ee\	.	.	.	.	.	.	.	.
8CC/ 8C	.	16gg\ 16eee	.	.	.	.	.	.	.	.
.	.	16ee\	.	.	.	.	.	.	.	.
8CC/J 8C	.	16gg\ 16eee	.	.	.	.	.	.	.	.
.	.	16ee\JJ	.	.	.	.	.	.	.	.
*	*	*8va	*	*	*	*	*	*	*	*
8CC/L 8C	.	16gg#X/LL 16eee	.	<	2ee\	swój	.	2ee\	-dnak	.
.	.	16ee/	.	.	.	.	.	.	.	.
8CC/ 8C	.	16gg#/ 16eee	.	.	.	.	.	.	.	.
.	.	16ee/	.	.	.	.	.	.	.	.
8CC/ 8C	.	16gg#/ 16eee	.	.	.	.	.	.	.	.
.	.	16ee/	.	.	.	.	.	.	.	.
8CC/J 8C	.	16gg#/ 16eee	.	.	.	.	.	.	.	.
.	.	16ee/JJ	.	.	.	.	.	.	.	.
=130	=130	=130	=130	=130	=130	=130	=130	=130	=130	=130
8CC/L 8C	.	16aa/LL 16eee	.	.	2ee\	wiel-	.	2ee\	wiel-	.
.	.	16ee/	.	.	.	.	.	.	.	.
8CC/ 8C	.	16aa/ 16eee	.	.	.	.	.	.	.	.
.	.	16ee/	.	.	.	.	.	.	.	.
8CC/ 8C	.	16aa/ 16eee	.	.	.	.	.	.	.	.
.	.	16ee/	.	.	.	.	.	.	.	.
8CC/J 8C	.	16aa/ 16eee	.	.	.	.	.	.	.	.
.	.	16ee/JJ	.	.	.	.	.	.	.	.
8CC/L 8C	.	16aa#X/LL 16eee	.	.	2ee\	-bię	.	2a#X/	-bi	.
.	.	16ee/	.	[	.	.	.	.	.	.
8CC/ 8C	.	16aa#/ 16eee	.	.	.	.	.	.	.	.
.	.	16ee/	.	.	.	.	.	.	.	.
8CC/ 8C	.	16aa#/ 16eee	.	.	.	.	.	.	.	.
.	.	16ee/	.	.	.	.	.	.	.	.
8CC/J 8C	.	16aa#/ 16eee	.	.	.	.	.	.	.	.
.	.	16ee/JJ	.	.	.	.	.	.	.	.
=131	=131	=131	=131	=131	=131	=131	=131	=131	=131	=131
1BBB 1BB	.	16bb/LL 16ddd#X	.	f	4dd#X\	los	.	4b\	los	.
.	.	16ffn/	.	.	.	.	.	.	.	.
.	.	16bb/ 16ddd#	.	.	.	.	.	.	.	.
.	.	16ff/	.	.	.	.	.	.	.	.
.	.	16bb/ 16ddd#	.	.	4r	.	.	4r	.	.
.	.	16ff/	.	.	.	.	.	.	.	.
.	.	16bb/ 16ddd#	.	.	.	.	.	.	.	.
.	.	16ff/JJ	.	.	.	.	.	.	.	.
.	.	16bb/LL 16ddd#	.	.	2r	.	.	2r	.	.
.	.	16ff/	.	.	.	.	.	.	.	.
.	.	16bb/ 16ddd#	.	.	.	.	.	.	.	.
.	.	16ff/	.	.	.	.	.	.	.	.
.	.	16bb/ 16ddd#	.	.	.	.	.	.	.	.
.	.	16ff/	.	.	.	.	.	.	.	.
.	.	16bb/ 16ddd#	.	.	.	.	.	.	.	.
.	.	16ff/JJ	.	.	.	.	.	.	.	.
=132	=132	=132	=132	=132	=132	=132	=132	=132	=132	=132
2AAA/ 2AA	.	16ff#/LL 16dddn	.	>	1r	.	.	1r	.	.
.	.	16dd/	.	.	.	.	.	.	.	.
.	.	16ff#/ 16ddd	.	.	.	.	.	.	.	.
.	.	16dd/	.	.	.	.	.	.	.	.
.	.	16ff#/ 16ddd	.	.	.	.	.	.	.	.
.	.	16dd/	.	.	.	.	.	.	.	.
.	.	16ff#/ 16ddd	.	.	.	.	.	.	.	.
.	.	16dd/JJ	.	.	.	.	.	.	.	.
2DD/ 2D	.	16ff#/LL 16cccn	.	.	.	.	.	.	.	.
.	.	16dd/	.	.	.	.	.	.	.	.
.	.	16ff#/ 16ccc	.	.	.	.	.	.	.	.
.	.	16dd/	.	.	.	.	.	.	.	.
.	.	16ff#/ 16ccc	.	.	.	.	.	.	.	.
.	.	16dd/	.	.	.	.	.	.	.	.
.	.	16ff#/ 16ccc	.	.	.	.	.	.	.	.
.	.	16dd/JJ	.	]]	.	.	.	.	.	.
=133	=133	=133	=133	=133	=133	=133	=133	=133	=133	=133
4GG/ 4G	.	4gg/ 4bb-y	.	p	2ddn\	Je-	.	1r	.	.
*	*	*X8va	*	*	*	*	*	*	*	*
4BB\ 4D 4G	.	8aa\L	.	.	.	.	.	.	.	.
.	.	8gg\J	.	.	.	.	.	.	.	.
4GG/	.	8ff#\L	.	.	2dd#X\	-dnak	.	.	.	.
.	.	8aa\	.	.	.	.	.	.	.	.
4BB\ 4D#X 4G	.	8gg\	.	.	.	.	.	.	.	.
.	.	8dd#X\J	.	.	.	.	.	.	.	.
!!LO:LB:g=original	!	!	!	!	!	!	!	!	!
=134	=134	=134	=134	=134	=134	=134	=134	=134	=134	=134
4C/	.	(8ff#\L	.	.	(8ff#\L	wiel-	.	1r	.	.
.	.	8ee\	.	.	8ee\	.	.	.	.	.
4E\ 4A	.	8dd\	.	.	8dd\	.	.	.	.	.
.	.	8cc\J	.	.	8cc\J)	.	.	.	.	.
4C/	.	8b\L	.	.	(8b\L	-bię	.	.	.	.
.	.	8a\	.	.	8a\	.	.	.	.	.
4E\ 4A	.	8cc\	.	.	8cc\	.	.	.	.	.
.	.	8ee\J)	.	.	8ee\J)	.	.	.	.	.
=135	=135	=135	=135	=135	=135	=135	=135	=135	=135	=135
4D\	.	4dd\	.	.	1dd	los	.	(8dd\L	Je-	.
.	.	.	.	.	.	.	.	8gg\	.	.
4r	.	4B/ 4d 4g	.	.	.	.	.	8ff#\	.	.
.	.	.	.	.	.	.	.	8ee\J)	.	.
4D\	.	4r	.	.	.	.	.	(8dd\L	-dnak	.
.	.	.	.	.	.	.	.	8cc#X\	.	.
4r	.	4B/ 4d 4g	.	.	.	.	.	8ee\	.	.
.	.	.	.	.	.	.	.	8dd\J)	.	.
=136	=136	=136	=136	=136	=136	=136	=136	=136	=136	=136
4DD/ 4D	.	(8dd\L	.	.	8dd\L	Lecz	.	2dd\	wiel-	.
.	.	8dd#X\J	.	.	8dd#X\J	.	.	.	.	.
4D\ 4F# 4c	.	8ff#\L	.	.	8ff#\L	swój	.	.	.	.
.	.	8ee\J	.	.	8ee\J	.	.	.	.	.
4DD/ 4D	.	8ddn\L	.	.	8ddn\L	wiel-	.	2f#/	-bi	.
.	.	8cc#X\	.	.	8cc#X\J	.	.	.	.	.
4D\ 4F# 4c	.	8ccn\	.	.	8ccn\L	-bię	.	.	.	.
.	.	8a\J)	.	.	8a\J	.	.	.	.	.
=137	=137	=137	=137	=137	=137	=137	=137	=137	=137	=137
4G\ 4B	.	4g/	.	.	4g/	los	.	4g/	los	.
*	*	*Xtremolo	*	*	*	*	*	*	*	*
(>4GGG/ 4GG	.	16b\LL 16gg	.	.	4r	.	.	4r	.	.
.	.	16g\	.	.	.	.	.	.	.	.
.	.	16b\ 16gg	.	.	.	.	.	.	.	.
.	.	16g\JJ	.	.	.	.	.	.	.	.
*	*	*tremolo	*	*	*	*	*	*	*	*
!	!	!LO:TX:a:i:t=simile	!	!	!	!	!	!	!	!
*	*	*	*	*	*	*	*	*	*	*
4AAA/ 4AA	.	16g\LL 16cc 16gg	.	<	2r	.	.	2r	.	.
.	.	16g\ 16cc 16gg	.	.	.	.	.	.	.	.
.	.	16g\ 16cc 16gg	.	.	.	.	.	.	.	.
.	.	16g\JJ 16cc 16gg	.	.	.	.	.	.	.	.
4AAA#X/) 4AA#X	.	16g\LL 16cc#X 16gg	.	.	.	.	.	.	.	.
.	.	16g\ 16cc# 16gg	.	.	.	.	.	.	.	.
.	.	16g\ 16cc# 16gg	.	.	.	.	.	.	.	.
.	.	16g\JJ 16cc# 16gg	.	.	.	.	.	.	.	.
=138	=138	=138	=138	=138	=138	=138	=138	=138	=138	=138
*	*	*^	*	*	*	*	*	*	*	*
*	*	*	*^	*	*	*	*	*	*	*	*
(>2BBB/ 2BB	.	16gg/LL	16dd/LL	16g\LL	.	[[	2r	.	.	1r	.	.
.	.	16gg/	16dd/	16g\	.	.	.	.	.	.	.	.
.	.	16gg/	16dd/	16g\	.	.	.	.	.	.	.	.
.	.	16gg/	16dd/JJ	16g\	.	.	.	.	.	.	.	.
.	.	16gg/	16dd#X/LL	16g\	.	.	.	.	.	.	.	.
.	.	16gg/	16dd#/	16g\	.	.	.	.	.	.	.	.
.	.	16gg/	16dd#/	16g\	.	.	.	.	.	.	.	.
.	.	16gg/	16dd#/JJ	16g\	.	.	.	.	.	.	.	.
4CC/ 4C	.	16gg/	16ee/LL	16g\	.	.	2r	.	.	.	.	.
.	.	16gg/	16ee/	16g\	.	.	.	.	.	.	.	.
.	.	16gg/	16ee/	16g\	.	.	.	.	.	.	.	.
.	.	16gg/	16ee/	16g\JJ	.	.	.	.	.	.	.	.
4CC#X/) 4C#X	.	16gg/	16ee/	16b-X\LL	.	.	.	.	.	.	.	.
.	.	16gg/	16ee/	16b-\	.	.	.	.	.	.	.	.
.	.	16gg/	16ee/	16b-\	.	.	.	.	.	.	.	.
.	.	16gg/JJ	16ee/JJ	16b-\JJ	.	.	.	.	.	.	.	.
*	*	*v	*v	*v	*	*	*	*	*	*	*	*
!!LO:LB:g=original	!	!	!	!	!	!	!	!	!
=139	=139	=139	=139	=139	=139	=139	=139	=139	=139	=139
!	!	!	!	!	!	!	!	!	!	!LO:DY:a
2DD/ 2D	.	16b\LL 16dd 16gg	.	ff	2.dd\	Lecz	.	2.dd\	Je-	f
.	.	16b\ 16dd 16gg	.	.	.	.	.	.	.	.
.	.	16b\ 16dd 16gg	.	.	.	.	.	.	.	.
.	.	16b\ 16dd 16gg	.	.	.	.	.	.	.	.
.	.	16b\ 16dd 16gg	.	.	.	.	.	.	.	.
.	.	16b\ 16dd 16gg	.	.	.	.	.	.	.	.
.	.	16b\ 16dd 16gg	.	.	.	.	.	.	.	.
.	.	16b\JJ 16dd 16gg	.	.	.	.	.	.	.	.
4DD/ 4D	.	16b\LL 16dd 16gg	.	.	.	.	.	.	.	.
.	.	16b\ 16dd 16gg	.	.	.	.	.	.	.	.
.	.	16b\ 16dd 16gg	.	.	.	.	.	.	.	.
.	.	16b\ 16dd 16gg	.	.	.	.	.	.	.	.
4DD/ 4D	.	16b\ 16dd 16gg	.	.	4dd\	swój	.	4dd\	-dnak	.
.	.	16b\ 16dd 16gg	.	.	.	.	.	.	.	.
.	.	16b\ 16dd 16gg	.	.	.	.	.	.	.	.
.	.	16b\JJ 16dd 16gg	.	.	.	.	.	.	.	.
=140	=140	=140	=140	=140	=140	=140	=140	=140	=140	=140
8DD/L 8D	.	16a\LL 16cc 16dd 16ff#	.	.	2dd\	wiel-	.	2dd\	wiel-	.
.	.	16a\ 16cc 16dd 16ff#	.	.	.	.	.	.	.	.
8DD/ 8D	.	16a\ 16cc 16dd 16ff#	.	.	.	.	.	.	.	.
.	.	16a\ 16cc 16dd 16ff#	.	.	.	.	.	.	.	.
8DD/ 8D	.	16a\ 16cc 16dd 16ff#	.	.	.	.	.	.	.	.
.	.	16a\ 16cc 16dd 16ff#	.	.	.	.	.	.	.	.
8DD/J 8D	.	16a\ 16cc 16dd 16ff#	.	.	.	.	.	.	.	.
.	.	16a\JJ 16cc 16dd 16ff#	.	.	.	.	.	.	.	.
8DD/L 8D	.	16a\LL 16cc 16dd 16ff#	.	.	2cc\	-bię	.	2f#/	-bi	.
.	.	16a\ 16cc 16dd 16ff#	.	.	.	.	.	.	.	.
8DD/ 8D	.	16a\ 16cc 16dd 16ff#	.	.	.	.	.	.	.	.
.	.	16a\ 16cc 16dd 16ff#	.	.	.	.	.	.	.	.
8DD/ 8D	.	16a\ 16cc 16dd 16ff#	.	.	.	.	.	.	.	.
.	.	16a\ 16cc 16dd 16ff#	.	.	.	.	.	.	.	.
8DD/J 8D	.	16a\ 16cc 16dd 16ff#	.	.	.	.	.	.	.	.
.	.	16a\JJ 16cc 16dd 16ff#	.	.	.	.	.	.	.	.
=141	=141	=141	=141	=141	=141	=141	=141	=141	=141	=141
4GG/ 4G	.	4g\ 4b 4dd 4gg	.	.	4b\	los	.	4g/	los	.
4BBB/ 4BB	.	16gg\LL	4	.	4r	.	.	4r	.	.
.	.	16gg\	3	.	.	.	.	.	.	.
.	.	16gg\	2	.	.	.	.	.	.	.
.	.	16gg\JJ	1	.	.	.	.	.	.	.
*	*	*Xtremolo	*	*	*	*	*	*	*	*
4CC/ 4C	.	16aa\LL	.	.	2r	.	.	2r	.	.
.	.	16gg\	.	.	.	.	.	.	.	.
.	.	16aa\	.	.	.	.	.	.	.	.
.	.	16gg\JJ	.	.	.	.	.	.	.	.
4CC#X/ 4C#X	.	16aa#X\LL	.	.	.	.	.	.	.	.
.	.	16gg\	.	.	.	.	.	.	.	.
.	.	16aa#\	.	.	.	.	.	.	.	.
.	.	16gg\JJ	.	.	.	.	.	.	.	.
=142	=142	=142	=142	=142	=142	=142	=142	=142	=142	=142
4DD/ 4D	.	16bb\LL	.	.	1r	.	.	1r	.	.
.	.	16gg\	.	.	.	.	.	.	.	.
.	.	16bb\	.	.	.	.	.	.	.	.
.	.	16gg\JJ	.	.	.	.	.	.	.	.
4Fn\ 4G 4d	.	16bb\LL	.	.	.	.	.	.	.	.
.	.	16gg\	.	.	.	.	.	.	.	.
.	.	16bb\	.	.	.	.	.	.	.	.
.	.	16gg\JJ	.	.	.	.	.	.	.	.
4E\ 4G 4c	.	16ccc\LL	.	.	.	.	.	.	.	.
.	.	16gg\	.	.	.	.	.	.	.	.
.	.	16ccc\	.	.	.	.	.	.	.	.
.	.	16gg\JJ	.	.	.	.	.	.	.	.
4E-X\ 4G 4B-X	.	16ccc#X\LL	.	.	.	.	.	.	.	.
.	.	16gg\	.	.	.	.	.	.	.	.
.	.	16ccc#\	.	.	.	.	.	.	.	.
.	.	16gg\JJ	.	.	.	.	.	.	.	.
=143	=143	=143	=143	=143	=143	=143	=143	=143	=143	=143
*	*	*tremolo	*	*	*	*	*	*	*	*
2D\ 2G 2Bn	.	16bb\LL 16ddd	.	ff	[1dd	wiel-	.	[1dd	wiel-	.
.	.	16gg\	.	.	.	.	.	.	.	.
.	.	16bb\ 16ddd	.	.	.	.	.	.	.	.
.	.	16gg\	.	.	.	.	.	.	.	.
.	.	16bb\ 16ddd	.	.	.	.	.	.	.	.
.	.	16gg\	.	.	.	.	.	.	.	.
.	.	16bb\ 16ddd	.	.	.	.	.	.	.	.
.	.	16gg\JJ	.	.	.	.	.	.	.	.
4DD/ 4D	.	16bb\LL 16ddd	.	.	.	.	.	.	.	.
.	.	16gg\	.	.	.	.	.	.	.	.
.	.	16bb\ 16ddd	.	.	.	.	.	.	.	.
.	.	16gg\	.	.	.	.	.	.	.	.
4DD/ 4D	.	16bb\ 16ddd	.	.	.	.	.	.	.	.
.	.	16gg\	.	.	.	.	.	.	.	.
.	.	16bb\ 16ddd	.	.	.	.	.	.	.	.
.	.	16gg\JJ	.	.	.	.	.	.	.	.
!!LO:PB:g=original	!	!	!	!	!	!	!	!	!	!
=144	=144	=144	=144	=144	=144	=144	=144	=144	=144	=144
*	*	*8va	*	*	*	*	*	*	*	*
8DD/L 8D	.	16ccc\LL 16ddd 16fff#	.	.	2dd\]	.	.	2dd\]	.	.
.	.	16aa\	.	.	.	.	.	.	.	.
8DD/ 8D	.	16ccc\ 16ddd 16fff#	.	.	.	.	.	.	.	.
.	.	16aa\	.	.	.	.	.	.	.	.
8DD/ 8D	.	16ccc\ 16ddd 16fff#	.	.	.	.	.	.	.	.
.	.	16aa\	.	.	.	.	.	.	.	.
8DD/J 8D	.	16ccc\ 16ddd 16fff#	.	.	.	.	.	.	.	.
.	.	16aa\JJ	.	.	.	.	.	.	.	.
8DD/L 8D	.	16ccc\LL 16ddd 16fff#	.	.	2cc\	-bię	.	2ff#\	-bi	.
.	.	16aa\	.	.	.	.	.	.	.	.
8DD/ 8D	.	16ccc\ 16ddd 16fff#	.	.	.	.	.	.	.	.
.	.	16aa\	.	.	.	.	.	.	.	.
8DD/ 8D	.	16ccc\ 16ddd 16fff#	.	.	.	.	.	.	.	.
.	.	16aa\	.	.	.	.	.	.	.	.
8DD/J 8D	.	16ccc\ 16ddd 16fff#	.	.	.	.	.	.	.	.
.	.	16aa\JJ	.	.	.	.	.	.	.	.
=145	=145	=145	=145	=145	=145	=145	=145	=145	=145	=145
4GG/ 4G	.	4gg\ 4bb 4ddd 4ggg	.	.	4b\	los	.	4gg\	los	.
4EE/ 4E	.	4ee/ 4gg#X 4bb 4eee	.	.	8ee\	lecz	.	8ee\	je-	.
.	.	.	.	.	8ee\	swój	.	8ee\	-dnak	.
4AA\ 4A	.	4ee/ 4aa 4ccc	.	.	4ee\	wiel-	.	4cc\	wiel-	.
4DD/ 4D	.	4dd/ 4ff# 4aa 4ddd	.	.	4ff#\	-bię	.	4dd\	-bi	.
=146	=146	=146	=146	=146	=146	=146	=146	=146	=146	=146
4GG/ 4G	.	4dd/ 4gg 4bb	.	.	4gg\	los	.	4b\	los	.
4EE/ 4E	.	4ee/ 4gg#X 4bb 4eee	.	.	8ee\	lecz	.	8ee\	je-	.
.	.	.	.	.	8ee\	swój	.	8ee\	-dnak	.
4AA\ 4A	.	4ee/ 4aa 4ccc	.	.	4ee\	wiel-	.	4cc\	wiel-	.
4DD/ 4D	.	4dd/ 4ff# 4aa 4ddd	.	.	4ff#\	-bię	.	4dd\	-bi	.
=147	=147	=147	=147	=147	=147	=147	=147	=147	=147	=147
4GG/ 4G	.	4dd/ 4gg 4bb	.	.	4gg\	los	.	4b\	los	.
4EE/ 4E	.	4ee/ 4gg#X 4bb 4eee	.	.	8ee\	lecz	.	8ee\	je-	.
.	.	.	.	.	8ee\	swój	.	8ee\	-dnak	.
4AA\ 4A	.	4ee/ 4aa 4ccc	.	.	4ee\	wiel-	.	4cc\	wiel-	.
4DD/ 4D	.	4dd/ 4ff# 4aa 4ddd	.	.	4ff#\	-bię	.	4dd\	-bi	.
=148	=148	=148	=148	=148	=148	=148	=148	=148	=148	=148
4GG/ 4G	.	4dd/ 4gg 4bb	.	.	4gg\	los	.	4b\	los	.
4EE/ 4E	.	4ee/ 4gg#X 4bb 4eee	.	.	8ee\	lecz	.	8ee\	je-	.
.	.	.	.	.	8ee\	swój	.	8ee\	-dnak	.
4AA\ 4A	.	4ee/ 4aa 4ccc	.	.	4ee\	wiel-	.	4cc\	wiel-	.
4DD/ 4D	.	4dd/ 4ff# 4aa 4ddd	.	.	4ff#\	-bię	.	4dd\	-bi	.
*	*	*X8va	*	*	*	*	*	*	*	*
!!LO:LB:g=original	!	!	!	!	!	!	!	!	!	!
=149	=149	=149	=149	=149	=149	=149	=149	=149	=149	=149
4.GG/ 4.BB 4.D 4.G	.	8dd\L 8gg 8bb	.	ff	4gg\	los.	.	4g/	los.	.
.	.	8eee\J	.	.	.	.	.	.	.	.
.	.	4.ddd^<\	.	.	4r	.	.	4r	.	.
8GG/ 8BB 8D 8G	.	.	.	.	.	.	.	.	.	.
*	*	*Xtremolo	*	*	*	*	*	*	*	*
4.GG/ 4.BB 4.D 4.G	.	.	.	.	2r	.	.	2r	.	.
.	.	8ccc\	.	.	.	.	.	.	.	.
.	.	4bb^<\	.	.	.	.	.	.	.	.
8GG/ 8BB 8D 8G	.	.	.	.	.	.	.	.	.	.
=150	=150	=150	=150	=150	=150	=150	=150	=150	=150	=150
4.GG/ 4.BB 4.D 4.G	.	8ryy	.	.	1r	.	.	1r	.	.
.	.	8aa\	.	.	.	.	.	.	.	.
.	.	4.gg^\	.	.	.	.	.	.	.	.
8GG/ 8BB 8D 8G	.	.	.	.	.	.	.	.	.	.
*	*	*	*	*	*	*	*	*	*	*
4.GG/ 4.BB 4.D 4.G	.	.	.	.	.	.	.	.	.	.
.	.	8ee\	.	.	.	.	.	.	.	.
.	.	4dd^\	.	.	.	.	.	.	.	.
8GG/ 8BB 8D 8G	.	.	.	.	.	.	.	.	.	.
=151	=151	=151	=151	=151	=151	=151	=151	=151	=151	=151
4.GG/ 4.BB 4.D 4.G	.	8ryy	.	.	1r	.	.	1r	.	.
.	.	8cc\	.	.	.	.	.	.	.	.
.	.	4.b^\	.	.	.	.	.	.	.	.
8GG/ 8BB 8D 8G	.	.	.	.	.	.	.	.	.	.
4.GG/ 4.BB 4.D 4.G	.	.	.	.	.	.	.	.	.	.
.	.	8a/	.	.	.	.	.	.	.	.
.	.	4g^>/	.	.	.	.	.	.	.	.
8GG/ 8BB 8D 8G	.	.	.	.	.	.	.	.	.	.
=152	=152	=152	=152	=152	=152	=152	=152	=152	=152	=152
4.GG/ 4.BB 4.D 4.G	.	8ryy	.	.	1r	.	.	1r	.	.
.	.	8e/	.	.	.	.	.	.	.	.
.	.	4d.^>/	.	.	.	.	.	.	.	.
8GG/ 8BB 8D 8G	.	.	.	.	.	.	.	.	.	.
4.GG/ 4.BB 4.D 4.G	.	.	.	.	.	.	.	.	.	.
.	.	8c/	.	.	.	.	.	.	.	.
.	.	4B^>/	.	.	.	.	.	.	.	.
8GG/ 8BB 8D	.	.	.	.	.	.	.	.	.	.
=153	=153	=153	=153	=153	=153	=153	=153	=153	=153	=153
4GG/ 4BB 4D	.	4G/	.	.	1r	.	.	1r	.	.
4r	.	4r	.	.	.	.	.	.	.	.
4GGG/ 4GG	.	4B/ 4d 4g	.	.	.	.	.	.	.	.
4GGG/ 4GG	.	4B/ 4d 4g	.	.	.	.	.	.	.	.
=154	=154	=154	=154	=154	=154	=154	=154	=154	=154	=154
4GGG/ 4GG	.	4B/ 4d 4g	.	.	1r	.	.	1r	.	.
4r	.	4r	.	.	.	.	.	.	.	.
4GG/ 4BB 4D 4G	.	4b\ 4dd 4gg 4bb	.	.	.	.	.	.	.	.
4r	.	4r	.	.	.	.	.	.	.	.
=155	=155	=155	=155	=155	=155	=155	=155	=155	=155	=155
2GGG/ 2GG	.	2G/	.	.	1r;	.	.	1r;	.	.
2r;	.	2r;	.	.	.	.	.	.	.	.
!!LO:LB:g=original	!	!	!	!	!	!	!	!	!	!
=156||	=156||	=156||	=156||	=156||	=156||	=156||	=156||	=156||	=156||	=156||
*clefF4	*	*clefG2	*	*	*clefG2	*	*	*clefG2	*	*
*k[f#]	*	*k[f#]	*	*	*k[f#]	*	*	*k[f#]	*	*
*M4/4	*	*M4/4	*	*	*M4/4	*	*	*M4/4	*	*
*met(c)	*	*met(c)	*	*	*met(c)	*	*	*met(c)	*	*
!	!	!	!	!	!LO:TX:a:B:t=Allegro moderato.	!	!	!	!	!
!	!	!	!	!	!LO:TX:a:B:t=D. ŻUAN.	!	!	!	!	!
2r	.	2r	.	.	4b\	Czy	.	2ryy	.	.
.	.	.	.	.	8cc\	nam	.	.	.	.
.	.	.	.	.	8cc\	po-	.	.	.	.
=157	=157	=157	=157	=157	=157	=157	=157	=157	=157	=157
4GG\	.	4G</ 4B< 4d	.	p	4dd\	-myśl-	.	1ryy	.	.
4r	.	4r	.	.	4dd\	-na	.	.	.	.
4GG#X\	.	4B</ 4d 4e	.	.	4ee\	gwiaz-	.	.	.	.
4r	.	4r	.	.	8b\	-da	.	.	.	.
.	.	.	.	.	8b\	za-	.	.	.	.
=158	=158	=158	=158	=158	=158	=158	=158	=158	=158	=158
4AA\	.	4A</ 4c 4e	.	.	4dd\	-pło-	.	1ryy	.	.
4r	.	4r	.	.	8cc\	-nie	.	.	.	.
.	.	.	.	.	8r	.	.	.	.	.
2r	.	2r	.	.	4a/	czy	.	.	.	.
.	.	.	.	.	8b\	nas	.	.	.	.
.	.	.	.	.	8b\	u-	.	.	.	.
=159	=159	=159	=159	=159	=159	=159	=159	=159	=159	=159
4DD#X\ 4D#X	.	4A</ 4f#	.	.	4cc\	-go-	.	1ryy	.	.
4r	.	4r	.	.	8b\	-dzi	.	.	.	.
.	.	.	.	.	8dd#X\	śmier-	.	.	.	.
4BBB/ 4BB	.	4b\ 4dd#X 4ff# 4bb	.	sf	4ff#\	-tel-	.	.	.	.
4r	.	4r	.	.	4a/	-ny	.	.	.	.
!!LO:LB:g=original	!	!	!	!	!	!	!	!	!	!
=160	=160	=160	=160	=160	=160	=160	=160	=160	=160	=160
!	!	!	!	!	!LO:TX:a:t=(D.ŻUAN klęka przed D.MARYĄ)...(Tymczasem w głębi sceny ukazują się Flihusterowie później wpadają na scenę)	!	!	!	!	!
4EE/ 4E	.	4g\ 4b 4ee 4gg	.	.	4g/	cios	.	1ryy	.	.
!	!	!	!	!LO:HP:b:t=cres	!	!	!	!	!	!
4r	.	4r	.	<	8r	.	.	.	.	.
.	.	.	.	.	8g/	jam	.	.	.	.
!	!	!LO:TX:b:i:t=e sempre piu animato	!	!	!	!	!	!	!	!
!	!	!	!	!	!	!	!	!	!	!
2D\	.	(>2B/ 2e 2g#X	.	.	4g#X/	za-	.	.	.	.
.	.	.	.	.	4g#/	-wsze	.	.	.	.
=161	=161	=161	=161	=161	=161	=161	=161	=161	=161	=161
*	*	*^	*	*	*	*	*	*	*	*
*	*	*	*^	*	*	*	*	*	*	*	*
2C/	.	2a/	1e	2c\	.	.	4a/	z to-	.	1ryy	.	.
.	.	.	.	.	.	.	4a/	-bę	.	.	.	.
2GG#X/	.	2b/)	.	2d\	.	.	4b\	w ży-	.	.	.	.
.	.	.	.	.	.	.	8b\	-ciu	.	.	.	.
.	.	.	.	.	.	.	8b\	i	.	.	.	.
*	*	*v	*v	*v	*	*	*	*	*	*	*	*
=162	=162	=162	=162	=162	=162	=162	=162	=162	=162	=162
4AA/	.	4c/ 4e 4a	.	.	4dd\	w sko-	.	1ryy	.	.
4r	.	4r	.	.	8cc\	-nie	.	.	.	.
.	.	.	.	.	8ee\	Jam	.	.	.	.
(<2CC#X\ (2C#X	.	(>2A#X</ (2e [2g	.	.	4gg\	za-	.	.	.	.
.	.	.	.	.	4ee\	-wsze	.	.	.	.
=163	=163	=163	=163	=163	=163	=163	=163	=163	=163	=163
4DD\) 4D)	.	4B</) 4d) 4g]	.	.	4dd\	z to-	.	1ryy	.	.
4r	.	4r	.	.	4dd\	-bą	.	.	.	.
4DD/ 4D	.	4a\ 4cc 4dd 4ff#	.	.	4ee\	w ży-	.	.	.	.
4r	.	4r	.	.	8dd\	-ciu	.	.	.	.
.	.	.	.	.	8dd\	i	.	.	.	.
==	==	==	==	==	==	==	==	==	==	==
*-	*-	*-	*-	*-	*-	*-	*-	*-	*-	*-
!!!system-decoration: s1,s2{(s3,s4)}
!!!RDF**kern: > = above
!!!RDF**kern: < = below
!!!ENC: Berenika Jozajtis
!!!END: 2022-09-10
!!!ENC: Natalia Wrzos
!!!END: 2022-09-19
!!!YEC: Copyright 2022 Narodowy Instytut Fryderyka Chopina (https://polishscores.org)
!!!YEM: License CC-BY-4.0 (https://creativecommons.org/licenses/by/4.0)
